(Projekt X-CARRIAGE-SINGLE-2)
(Erstellt mit Estlcam Version 8 Build 8,107)
(Laufzeit ca. 00:07:40 Stunden)

(Benoetigte Werkzeuge:)
(Fraeser 2mm)

G90
M03 S25000
G00 Z5.0000


(Nr. 1: Tasche raeumen: Ausschnitt 5)
G00 X8.1131 Y44.6000 Z5.0000
G00 Z0.5000
G01 Z-1.0000 F900 S25000
G01 X3.8869 F1200
G01 X3.8831 Y46.4000
G01 X8.1093
G00 Z5.0000
G00 X8.1131 Y44.6000
G00 Z-0.5000
G01 Z-2.0000 F900
G01 X3.8869 F1200
G01 X3.8831 Y46.4000
G01 X8.1093
G00 Z5.0000
G00 X8.1131 Y44.6000
G00 Z-1.5000
G01 Z-2.5000 F900
G01 X3.8869 F1200
G01 X3.8831 Y46.4000
G01 X8.1093
G00 Z5.0000


(Nr. 2: Tasche Seitenwand: Ausschnitt 5)
G00 X5.9996 Y43.0006 Z5.0000
G00 Z0.5000
G01 Z-1.0000 F900
G02 X3.4996 Y45.5006 I0.0000 J2.5000 F1200
G02 X5.9996 Y48.0005 I2.5000 J0.0000
G02 X8.4995 Y45.5006 I0.0000 J-2.5000
G02 X5.9996 Y43.0006 I-2.5000 J0.0000
G01 Z-2.0000 F900
G02 X3.4996 Y45.5006 I0.0000 J2.5000 F1200
G02 X5.9996 Y48.0005 I2.5000 J0.0000
G02 X8.4995 Y45.5006 I0.0000 J-2.5000
G02 X5.9996 Y43.0006 I-2.5000 J0.0000
G01 Z-2.5000 F900
G02 X3.4996 Y45.5006 I0.0000 J2.5000 F1200
G02 X5.9996 Y48.0005 I2.5000 J0.0000
G02 X8.4995 Y45.5006 I0.0000 J-2.5000
G02 X5.9996 Y43.0006 I-2.5000 J0.0000
G00 Z5.0000


(Nr. 3: Tasche raeumen: Ausschnitt 6)
G00 X31.1143 Y44.6000 Z5.0000
G00 Z0.5000
G01 Z-1.0000 F900
G01 X26.8874 F1200
G01 X26.8831 Y46.4000
G01 X31.1143
G00 Z5.0000
G00 Y44.6000
G00 Z-0.5000
G01 Z-2.0000 F900
G01 X26.8874 F1200
G01 X26.8831 Y46.4000
G01 X31.1143
G00 Z5.0000
G00 Y44.6000
G00 Z-1.5000
G01 Z-2.5000 F900
G01 X26.8874 F1200
G01 X26.8831 Y46.4000
G01 X31.1143
G00 Z5.0000


(Nr. 4: Tasche Seitenwand: Ausschnitt 6)
G00 X29.0003 Y42.9998 Z5.0000
G00 Z0.5000
G01 Z-1.0000 F900
G02 X26.5004 Y45.4997 I0.0000 J2.4999 F1200
G02 X29.0003 Y47.9996 I2.4999 J0.0000
G02 X31.5002 Y45.4997 I0.0000 J-2.4999
G02 X29.0003 Y42.9998 I-2.4999 J0.0000
G01 Z-2.0000 F900
G02 X26.5004 Y45.4997 I0.0000 J2.4999 F1200
G02 X29.0003 Y47.9996 I2.4999 J0.0000
G02 X31.5002 Y45.4997 I0.0000 J-2.4999
G02 X29.0003 Y42.9998 I-2.4999 J0.0000
G01 Z-2.5000 F900
G02 X26.5004 Y45.4997 I0.0000 J2.4999 F1200
G02 X29.0003 Y47.9996 I2.4999 J0.0000
G02 X31.5002 Y45.4997 I0.0000 J-2.4999
G02 X29.0003 Y42.9998 I-2.4999 J0.0000
G00 Z5.0000


(Nr. 5: Tasche raeumen: Ausschnitt 3)
G00 X11.7094 Y29.5500 Z5.0000
G00 Z0.5000
G01 Z-1.0000 F900
G01 X9.2832 F1200
G01 X8.9126 Y29.2643
G01 X7.5742 Y27.7500
G01 X12.7913
G02 X12.1114 Y25.9500 I-2.3283 J-0.1489
G01 X5.9834
G01 X4.3925 Y24.1500
G01 X10.5191
G01 X8.9269 Y22.3500
G01 X3.7064
G03 X4.7823 Y20.5500 I2.2820 J0.1425
G01 X7.2165
G00 Z5.0000
G00 X11.7094 Y29.5500
G00 Z-0.5000
G01 Z-2.0000 F900
G01 X9.2832 F1200
G01 X8.9126 Y29.2643
G01 X7.5742 Y27.7500
G01 X12.7913
G02 X12.1114 Y25.9500 I-2.3283 J-0.1489
G01 X5.9834
G01 X4.3925 Y24.1500
G01 X10.5191
G01 X8.9269 Y22.3500
G01 X3.7064
G03 X4.7823 Y20.5500 I2.2820 J0.1425
G01 X7.2165
G00 Z5.0000
G00 X11.7094 Y29.5500
G00 Z-1.5000
G01 Z-2.5000 F900
G01 X9.2832 F1200
G01 X8.9126 Y29.2643
G01 X7.5742 Y27.7500
G01 X12.7913
G02 X12.1114 Y25.9500 I-2.3283 J-0.1489
G01 X5.9834
G01 X4.3925 Y24.1500
G01 X10.5191
G01 X8.9269 Y22.3500
G01 X3.7064
G03 X4.7823 Y20.5500 I2.2820 J0.1425
G01 X7.2165
G00 Z5.0000


(Nr. 6: Tasche Seitenwand: Ausschnitt 3)
G00 X10.5232 Y30.0997 Z5.0000
G00 Z0.5000
G01 Z-1.0000 F900
G02 X12.7942 Y26.6051 I-0.0224 J-2.4998 F1200
G01 X12.6660 Y26.3508
G01 X12.5094 Y26.1125
G01 X12.3685 Y25.9391
G01 X7.7257 Y20.6913
G02 X5.9937 Y20.0004 I-1.7243 J1.8064
G02 X3.7350 Y23.5598 I0.0054 J2.4998
G01 X3.8340 Y23.7493
G01 X4.0817 Y24.1012
G01 X8.7744 Y29.4089
G02 X10.5232 Y30.0997 I1.7238 J-1.8049
G01 Z-2.0000 F900
G02 X12.7942 Y26.6051 I-0.0224 J-2.4998 F1200
G01 X12.6660 Y26.3508
G01 X12.5094 Y26.1125
G01 X12.3685 Y25.9391
G01 X7.7257 Y20.6913
G02 X5.9937 Y20.0004 I-1.7243 J1.8064
G02 X3.7350 Y23.5598 I0.0054 J2.4998
G01 X3.8340 Y23.7493
G01 X4.0817 Y24.1012
G01 X8.7744 Y29.4089
G02 X10.5232 Y30.0997 I1.7238 J-1.8049
G01 Z-2.5000 F900
G02 X12.7942 Y26.6051 I-0.0224 J-2.4998 F1200
G01 X12.6660 Y26.3508
G01 X12.5094 Y26.1125
G01 X12.3685 Y25.9391
G01 X7.7257 Y20.6913
G02 X5.9937 Y20.0004 I-1.7243 J1.8064
G02 X3.7350 Y23.5598 I0.0054 J2.4998
G01 X3.8340 Y23.7493
G01 X4.0817 Y24.1012
G01 X8.7744 Y29.4089
G02 X10.5232 Y30.0997 I1.7238 J-1.8049
G00 Z5.0000


(Nr. 7: Tasche raeumen: Ausschnitt 4)
G00 X27.4305 Y27.7498 Z5.0000
G00 Z0.5000
G01 Z-1.0000 F900
G01 X22.2088 F1200
G02 X23.2847 Y29.5498 I2.2663 J-0.1331
G01 X25.7170
G00 Z5.0000
G00 X22.8902 Y27.7498
G00 Z0.5000
G01 Z-1.0000
G01 Y25.9498
G01 X29.0205
G01 X30.6104 Y24.1498
G01 X24.4794
G01 X26.0687 Y22.3498
G01 X31.2885
G02 X30.2173 Y20.5498 I-2.2637 J0.1284
G01 X27.7959
G00 Z5.0000
G00 X27.4305 Y27.7498
G00 Z-0.5000
G01 Z-2.0000 F900
G01 X22.2088 F1200
G02 X23.2847 Y29.5498 I2.2663 J-0.1331
G01 X25.7170
G00 Z5.0000
G00 X22.8902 Y27.7498
G00 Z-0.5000
G01 Z-2.0000
G01 Y25.9498
G01 X29.0205
G01 X30.6104 Y24.1498
G01 X24.4794
G01 X26.0687 Y22.3498
G01 X31.2885
G02 X30.2173 Y20.5498 I-2.2637 J0.1284
G01 X27.7959
G00 Z5.0000
G00 X27.4305 Y27.7498
G00 Z-1.5000
G01 Z-2.5000 F900
G01 X22.2088 F1200
G02 X23.2847 Y29.5498 I2.2663 J-0.1331
G01 X25.7170
G00 Z5.0000
G00 X22.8902 Y27.7498
G00 Z-1.5000
G01 Z-2.5000
G01 Y25.9498
G01 X29.0205
G01 X30.6104 Y24.1498
G01 X24.4794
G01 X26.0687 Y22.3498
G01 X31.2885
G02 X30.2173 Y20.5498 I-2.2637 J0.1284
G01 X27.7959
G00 Z5.0000


(Nr. 8: Tasche Seitenwand: Ausschnitt 4)
G00 X22.1074 Y26.8736 Z5.0000
G00 Z0.5000
G01 Z-1.0000 F900
G02 X26.2727 Y29.3626 I2.3923 J0.7263 F1200
G01 X30.9211 Y24.1001
G02 X31.3929 Y23.2265 I-1.9099 J-1.5957
G02 X28.9994 Y20.0004 I-2.3923 J-0.7261
G02 X27.2112 Y20.7541 I-0.0028 J2.4916
G01 X22.5792 Y26.0000
G02 X22.1074 Y26.8736 I1.9099 J1.5957
G01 Z-2.0000 F900
G02 X26.2727 Y29.3626 I2.3923 J0.7263 F1200
G01 X30.9211 Y24.1001
G02 X31.3929 Y23.2265 I-1.9099 J-1.5957
G02 X28.9994 Y20.0004 I-2.3923 J-0.7261
G02 X27.2112 Y20.7541 I-0.0028 J2.4916
G01 X22.5792 Y26.0000
G02 X22.1074 Y26.8736 I1.9099 J1.5957
G01 Z-2.5000 F900
G02 X26.2727 Y29.3626 I2.3923 J0.7263 F1200
G01 X30.9211 Y24.1001
G02 X31.3929 Y23.2265 I-1.9099 J-1.5957
G02 X28.9994 Y20.0004 I-2.3923 J-0.7261
G02 X27.2112 Y20.7541 I-0.0028 J2.4916
G01 X22.5792 Y26.0000
G02 X22.1074 Y26.8736 I1.9099 J1.5957
G00 Z5.0000


(Nr. 9: Kreistasche 1)
G00 X6.9002 Y45.5000 Z5.0000
G00 Z0.5000
G02 X5.5502 Y44.7205 Z0.3333 I-0.9000 J0.0000 F900
G02 Y46.2794 Z0.1667 I0.4500 J0.7794
G02 X6.9002 Y45.5000 Z0.0000 I0.4500 J-0.7794
G02 X5.5502 Y44.7205 I-0.9000 J0.0000
G02 Y46.2794 I0.4500 J0.7794
G02 X6.9002 Y45.5000 I0.4500 J-0.7794
G02 X5.5502 Y44.7205 Z-0.3333 I-0.9000 J0.0000
G02 Y46.2794 Z-0.6667 I0.4500 J0.7794
G02 X6.9002 Y45.5000 Z-1.0000 I0.4500 J-0.7794
G02 X5.5502 Y44.7205 I-0.9000 J0.0000
G02 Y46.2794 I0.4500 J0.7794
G02 X6.9002 Y45.5000 I0.4500 J-0.7794
G02 X6.9356 Y45.1125 I-0.8803 J-0.2758 F1200
G02 X6.7781 Y44.7221 I-1.0190 J0.1842
G02 X6.4212 Y44.4836 I-0.7779 J0.7779
G02 X6.0002 Y44.3999 I-0.4210 J1.0164
G02 X5.5792 Y44.4836 I0.0000 J1.1001
G02 X5.2223 Y44.7221 I0.4210 J1.0164
G02 X4.9838 Y45.0790 I0.7779 J0.7779
G02 X4.9001 Y45.5000 I1.0164 J0.4210
G02 X4.9838 Y45.9210 I1.1001 J0.0000
G02 X5.2223 Y46.2779 I1.0164 J-0.4210
G02 X5.5792 Y46.5163 I0.7779 J-0.7779
G02 X6.0002 Y46.6001 I0.4210 J-1.0164
G02 X6.4212 Y46.5163 I0.0000 J-1.1001
G02 X6.7781 Y46.2779 I-0.4210 J-1.0164
G02 X7.0165 Y45.9210 I-0.7779 J-0.7779
G02 X7.1003 Y45.5000 I-1.0164 J-0.4210
G02 X5.4501 Y44.5473 I-1.1001 J0.0000
G02 Y46.4527 I0.5501 J0.9527
G02 X7.1003 Y45.5000 I0.5501 J-0.9527
G00 X6.9002
G02 X5.5502 Y44.7205 Z-1.3333 I-0.9000 J0.0000 F900
G02 Y46.2794 Z-1.6667 I0.4500 J0.7794
G02 X6.9002 Y45.5000 Z-2.0000 I0.4500 J-0.7794
G02 X5.5502 Y44.7205 I-0.9000 J0.0000
G02 Y46.2794 I0.4500 J0.7794
G02 X6.9002 Y45.5000 I0.4500 J-0.7794
G02 X6.9356 Y45.1125 I-0.8803 J-0.2758 F1200
G02 X6.7781 Y44.7221 I-1.0190 J0.1842
G02 X6.4212 Y44.4836 I-0.7779 J0.7779
G02 X6.0002 Y44.3999 I-0.4210 J1.0164
G02 X5.5792 Y44.4836 I0.0000 J1.1001
G02 X5.2223 Y44.7221 I0.4210 J1.0164
G02 X4.9838 Y45.0790 I0.7779 J0.7779
G02 X4.9001 Y45.5000 I1.0164 J0.4210
G02 X4.9838 Y45.9210 I1.1001 J0.0000
G02 X5.2223 Y46.2779 I1.0164 J-0.4210
G02 X5.5792 Y46.5163 I0.7779 J-0.7779
G02 X6.0002 Y46.6001 I0.4210 J-1.0164
G02 X6.4212 Y46.5163 I0.0000 J-1.1001
G02 X6.7781 Y46.2779 I-0.4210 J-1.0164
G02 X7.0165 Y45.9210 I-0.7779 J-0.7779
G02 X7.1003 Y45.5000 I-1.0164 J-0.4210
G02 X5.4501 Y44.5473 I-1.1001 J0.0000
G02 Y46.4527 I0.5501 J0.9527
G02 X7.1003 Y45.5000 I0.5501 J-0.9527
G00 X6.9002
G02 X5.5502 Y44.7205 Z-2.3333 I-0.9000 J0.0000 F900
G02 Y46.2794 Z-2.6667 I0.4500 J0.7794
G02 X6.9002 Y45.5000 Z-3.0000 I0.4500 J-0.7794
G02 X5.5502 Y44.7205 I-0.9000 J0.0000
G02 Y46.2794 I0.4500 J0.7794
G02 X6.9002 Y45.5000 I0.4500 J-0.7794
G02 X6.9356 Y45.1125 I-0.8803 J-0.2758 F1200
G02 X6.7781 Y44.7221 I-1.0190 J0.1842
G02 X6.4212 Y44.4836 I-0.7779 J0.7779
G02 X6.0002 Y44.3999 I-0.4210 J1.0164
G02 X5.5792 Y44.4836 I0.0000 J1.1001
G02 X5.2223 Y44.7221 I0.4210 J1.0164
G02 X4.9838 Y45.0790 I0.7779 J0.7779
G02 X4.9001 Y45.5000 I1.0164 J0.4210
G02 X4.9838 Y45.9210 I1.1001 J0.0000
G02 X5.2223 Y46.2779 I1.0164 J-0.4210
G02 X5.5792 Y46.5163 I0.7779 J-0.7779
G02 X6.0002 Y46.6001 I0.4210 J-1.0164
G02 X6.4212 Y46.5163 I0.0000 J-1.1001
G02 X6.7781 Y46.2779 I-0.4210 J-1.0164
G02 X7.0165 Y45.9210 I-0.7779 J-0.7779
G02 X7.1003 Y45.5000 I-1.0164 J-0.4210
G02 X5.4501 Y44.5473 I-1.1001 J0.0000
G02 Y46.4527 I0.5501 J0.9527
G02 X7.1003 Y45.5000 I0.5501 J-0.9527
G00 X6.9002
G02 X5.5502 Y44.7205 Z-3.3333 I-0.9000 J0.0000 F900
G02 Y46.2794 Z-3.6667 I0.4500 J0.7794
G02 X6.9002 Y45.5000 Z-4.0000 I0.4500 J-0.7794
G02 X5.5502 Y44.7205 I-0.9000 J0.0000
G02 Y46.2794 I0.4500 J0.7794
G02 X6.9002 Y45.5000 I0.4500 J-0.7794
G02 X6.9356 Y45.1125 I-0.8803 J-0.2758 F1200
G02 X6.7781 Y44.7221 I-1.0190 J0.1842
G02 X6.4212 Y44.4836 I-0.7779 J0.7779
G02 X6.0002 Y44.3999 I-0.4210 J1.0164
G02 X5.5792 Y44.4836 I0.0000 J1.1001
G02 X5.2223 Y44.7221 I0.4210 J1.0164
G02 X4.9838 Y45.0790 I0.7779 J0.7779
G02 X4.9001 Y45.5000 I1.0164 J0.4210
G02 X4.9838 Y45.9210 I1.1001 J0.0000
G02 X5.2223 Y46.2779 I1.0164 J-0.4210
G02 X5.5792 Y46.5163 I0.7779 J-0.7779
G02 X6.0002 Y46.6001 I0.4210 J-1.0164
G02 X6.4212 Y46.5163 I0.0000 J-1.1001
G02 X6.7781 Y46.2779 I-0.4210 J-1.0164
G02 X7.0165 Y45.9210 I-0.7779 J-0.7779
G02 X7.1003 Y45.5000 I-1.0164 J-0.4210
G02 X5.4501 Y44.5473 I-1.1001 J0.0000
G02 Y46.4527 I0.5501 J0.9527
G02 X7.1003 Y45.5000 I0.5501 J-0.9527
G00 X6.9002
G02 X5.5502 Y44.7205 Z-4.3333 I-0.9000 J0.0000 F900
G02 Y46.2794 Z-4.6667 I0.4500 J0.7794
G02 X6.9002 Y45.5000 Z-5.0000 I0.4500 J-0.7794
G02 X5.5502 Y44.7205 I-0.9000 J0.0000
G02 Y46.2794 I0.4500 J0.7794
G02 X6.9002 Y45.5000 I0.4500 J-0.7794
G02 X6.9356 Y45.1125 I-0.8803 J-0.2758 F1200
G02 X6.7781 Y44.7221 I-1.0190 J0.1842
G02 X6.4212 Y44.4836 I-0.7779 J0.7779
G02 X6.0002 Y44.3999 I-0.4210 J1.0164
G02 X5.5792 Y44.4836 I0.0000 J1.1001
G02 X5.2223 Y44.7221 I0.4210 J1.0164
G02 X4.9838 Y45.0790 I0.7779 J0.7779
G02 X4.9001 Y45.5000 I1.0164 J0.4210
G02 X4.9838 Y45.9210 I1.1001 J0.0000
G02 X5.2223 Y46.2779 I1.0164 J-0.4210
G02 X5.5792 Y46.5163 I0.7779 J-0.7779
G02 X6.0002 Y46.6001 I0.4210 J-1.0164
G02 X6.4212 Y46.5163 I0.0000 J-1.1001
G02 X6.7781 Y46.2779 I-0.4210 J-1.0164
G02 X7.0165 Y45.9210 I-0.7779 J-0.7779
G02 X7.1003 Y45.5000 I-1.0164 J-0.4210
G02 X5.4501 Y44.5473 I-1.1001 J0.0000
G02 Y46.4527 I0.5501 J0.9527
G02 X7.1003 Y45.5000 I0.5501 J-0.9527
G00 X6.9002
G02 X5.5502 Y44.7205 Z-5.1667 I-0.9000 J0.0000 F900
G02 Y46.2794 Z-5.3333 I0.4500 J0.7794
G02 X6.9002 Y45.5000 Z-5.5000 I0.4500 J-0.7794
G02 X5.5502 Y44.7205 I-0.9000 J0.0000
G02 Y46.2794 I0.4500 J0.7794
G02 X6.9002 Y45.5000 I0.4500 J-0.7794
G02 X6.9356 Y45.1125 I-0.8803 J-0.2758 F1200
G02 X6.7781 Y44.7221 I-1.0190 J0.1842
G02 X6.4212 Y44.4836 I-0.7779 J0.7779
G02 X6.0002 Y44.3999 I-0.4210 J1.0164
G02 X5.5792 Y44.4836 I0.0000 J1.1001
G02 X5.2223 Y44.7221 I0.4210 J1.0164
G02 X4.9838 Y45.0790 I0.7779 J0.7779
G02 X4.9001 Y45.5000 I1.0164 J0.4210
G02 X4.9838 Y45.9210 I1.1001 J0.0000
G02 X5.2223 Y46.2779 I1.0164 J-0.4210
G02 X5.5792 Y46.5163 I0.7779 J-0.7779
G02 X6.0002 Y46.6001 I0.4210 J-1.0164
G02 X6.4212 Y46.5163 I0.0000 J-1.1001
G02 X6.7781 Y46.2779 I-0.4210 J-1.0164
G02 X7.0165 Y45.9210 I-0.7779 J-0.7779
G02 X7.1003 Y45.5000 I-1.0164 J-0.4210
G02 X5.4501 Y44.5473 I-1.1001 J0.0000
G02 Y46.4527 I0.5501 J0.9527
G02 X7.1003 Y45.5000 I0.5501 J-0.9527
G00 Z5.0000


(Nr. 10: Kreistasche 2)
G00 X29.9000 Y45.5001 Z5.0000
G00 Z0.5000
G02 X28.5500 Y44.7207 Z0.3333 I-0.9000 J0.0000 F900
G02 Y46.2795 Z0.1667 I0.4500 J0.7794
G02 X29.9000 Y45.5001 Z0.0000 I0.4500 J-0.7794
G02 X28.5500 Y44.7207 I-0.9000 J0.0000
G02 Y46.2795 I0.4500 J0.7794
G02 X29.9000 Y45.5001 I0.4500 J-0.7794
G02 X28.5500 Y44.7207 Z-0.3333 I-0.9000 J0.0000
G02 Y46.2795 Z-0.6667 I0.4500 J0.7794
G02 X29.9000 Y45.5001 Z-1.0000 I0.4500 J-0.7794
G02 X28.5500 Y44.7207 I-0.9000 J0.0000
G02 Y46.2795 I0.4500 J0.7794
G02 X29.9000 Y45.5001 I0.4500 J-0.7794
G02 X29.9354 Y45.1127 I-0.8803 J-0.2758 F1200
G02 X29.7777 Y44.7224 I-1.0189 J0.1847
G02 X29.4209 Y44.4840 I-0.7777 J0.7777
G02 X29.0000 Y44.4002 I-0.4209 J1.0162
G02 X28.5791 Y44.4840 I0.0000 J1.0999
G02 X28.2223 Y44.7224 I0.4209 J1.0162
G02 X27.9838 Y45.0792 I0.7777 J0.7777
G02 X27.9001 Y45.5001 I1.0162 J0.4209
G02 X27.9838 Y45.9210 I1.0999 J0.0000
G02 X28.2223 Y46.2779 I1.0162 J-0.4209
G02 X28.5791 Y46.5163 I0.7777 J-0.7777
G02 X29.0000 Y46.6000 I0.4209 J-1.0162
G02 X29.4209 Y46.5163 I0.0000 J-1.0999
G02 X29.7777 Y46.2779 I-0.4209 J-1.0162
G02 X30.0162 Y45.9210 I-0.7777 J-0.7777
G02 X30.0999 Y45.5001 I-1.0162 J-0.4209
G02 X28.4501 Y44.5476 I-1.0999 J0.0000
G02 Y46.4527 I0.5499 J0.9525
G02 X30.0999 Y45.5001 I0.5499 J-0.9525
G00 X29.9000
G02 X28.5500 Y44.7207 Z-1.3333 I-0.9000 J0.0000 F900
G02 Y46.2795 Z-1.6667 I0.4500 J0.7794
G02 X29.9000 Y45.5001 Z-2.0000 I0.4500 J-0.7794
G02 X28.5500 Y44.7207 I-0.9000 J0.0000
G02 Y46.2795 I0.4500 J0.7794
G02 X29.9000 Y45.5001 I0.4500 J-0.7794
G02 X29.9354 Y45.1127 I-0.8803 J-0.2758 F1200
G02 X29.7777 Y44.7224 I-1.0189 J0.1847
G02 X29.4209 Y44.4840 I-0.7777 J0.7777
G02 X29.0000 Y44.4002 I-0.4209 J1.0162
G02 X28.5791 Y44.4840 I0.0000 J1.0999
G02 X28.2223 Y44.7224 I0.4209 J1.0162
G02 X27.9838 Y45.0792 I0.7777 J0.7777
G02 X27.9001 Y45.5001 I1.0162 J0.4209
G02 X27.9838 Y45.9210 I1.0999 J0.0000
G02 X28.2223 Y46.2779 I1.0162 J-0.4209
G02 X28.5791 Y46.5163 I0.7777 J-0.7777
G02 X29.0000 Y46.6000 I0.4209 J-1.0162
G02 X29.4209 Y46.5163 I0.0000 J-1.0999
G02 X29.7777 Y46.2779 I-0.4209 J-1.0162
G02 X30.0162 Y45.9210 I-0.7777 J-0.7777
G02 X30.0999 Y45.5001 I-1.0162 J-0.4209
G02 X28.4501 Y44.5476 I-1.0999 J0.0000
G02 Y46.4527 I0.5499 J0.9525
G02 X30.0999 Y45.5001 I0.5499 J-0.9525
G00 X29.9000
G02 X28.5500 Y44.7207 Z-2.3333 I-0.9000 J0.0000 F900
G02 Y46.2795 Z-2.6667 I0.4500 J0.7794
G02 X29.9000 Y45.5001 Z-3.0000 I0.4500 J-0.7794
G02 X28.5500 Y44.7207 I-0.9000 J0.0000
G02 Y46.2795 I0.4500 J0.7794
G02 X29.9000 Y45.5001 I0.4500 J-0.7794
G02 X29.9354 Y45.1127 I-0.8803 J-0.2758 F1200
G02 X29.7777 Y44.7224 I-1.0189 J0.1847
G02 X29.4209 Y44.4840 I-0.7777 J0.7777
G02 X29.0000 Y44.4002 I-0.4209 J1.0162
G02 X28.5791 Y44.4840 I0.0000 J1.0999
G02 X28.2223 Y44.7224 I0.4209 J1.0162
G02 X27.9838 Y45.0792 I0.7777 J0.7777
G02 X27.9001 Y45.5001 I1.0162 J0.4209
G02 X27.9838 Y45.9210 I1.0999 J0.0000
G02 X28.2223 Y46.2779 I1.0162 J-0.4209
G02 X28.5791 Y46.5163 I0.7777 J-0.7777
G02 X29.0000 Y46.6000 I0.4209 J-1.0162
G02 X29.4209 Y46.5163 I0.0000 J-1.0999
G02 X29.7777 Y46.2779 I-0.4209 J-1.0162
G02 X30.0162 Y45.9210 I-0.7777 J-0.7777
G02 X30.0999 Y45.5001 I-1.0162 J-0.4209
G02 X28.4501 Y44.5476 I-1.0999 J0.0000
G02 Y46.4527 I0.5499 J0.9525
G02 X30.0999 Y45.5001 I0.5499 J-0.9525
G00 X29.9000
G02 X28.5500 Y44.7207 Z-3.3333 I-0.9000 J0.0000 F900
G02 Y46.2795 Z-3.6667 I0.4500 J0.7794
G02 X29.9000 Y45.5001 Z-4.0000 I0.4500 J-0.7794
G02 X28.5500 Y44.7207 I-0.9000 J0.0000
G02 Y46.2795 I0.4500 J0.7794
G02 X29.9000 Y45.5001 I0.4500 J-0.7794
G02 X29.9354 Y45.1127 I-0.8803 J-0.2758 F1200
G02 X29.7777 Y44.7224 I-1.0189 J0.1847
G02 X29.4209 Y44.4840 I-0.7777 J0.7777
G02 X29.0000 Y44.4002 I-0.4209 J1.0162
G02 X28.5791 Y44.4840 I0.0000 J1.0999
G02 X28.2223 Y44.7224 I0.4209 J1.0162
G02 X27.9838 Y45.0792 I0.7777 J0.7777
G02 X27.9001 Y45.5001 I1.0162 J0.4209
G02 X27.9838 Y45.9210 I1.0999 J0.0000
G02 X28.2223 Y46.2779 I1.0162 J-0.4209
G02 X28.5791 Y46.5163 I0.7777 J-0.7777
G02 X29.0000 Y46.6000 I0.4209 J-1.0162
G02 X29.4209 Y46.5163 I0.0000 J-1.0999
G02 X29.7777 Y46.2779 I-0.4209 J-1.0162
G02 X30.0162 Y45.9210 I-0.7777 J-0.7777
G02 X30.0999 Y45.5001 I-1.0162 J-0.4209
G02 X28.4501 Y44.5476 I-1.0999 J0.0000
G02 Y46.4527 I0.5499 J0.9525
G02 X30.0999 Y45.5001 I0.5499 J-0.9525
G00 X29.9000
G02 X28.5500 Y44.7207 Z-4.3333 I-0.9000 J0.0000 F900
G02 Y46.2795 Z-4.6667 I0.4500 J0.7794
G02 X29.9000 Y45.5001 Z-5.0000 I0.4500 J-0.7794
G02 X28.5500 Y44.7207 I-0.9000 J0.0000
G02 Y46.2795 I0.4500 J0.7794
G02 X29.9000 Y45.5001 I0.4500 J-0.7794
G02 X29.9354 Y45.1127 I-0.8803 J-0.2758 F1200
G02 X29.7777 Y44.7224 I-1.0189 J0.1847
G02 X29.4209 Y44.4840 I-0.7777 J0.7777
G02 X29.0000 Y44.4002 I-0.4209 J1.0162
G02 X28.5791 Y44.4840 I0.0000 J1.0999
G02 X28.2223 Y44.7224 I0.4209 J1.0162
G02 X27.9838 Y45.0792 I0.7777 J0.7777
G02 X27.9001 Y45.5001 I1.0162 J0.4209
G02 X27.9838 Y45.9210 I1.0999 J0.0000
G02 X28.2223 Y46.2779 I1.0162 J-0.4209
G02 X28.5791 Y46.5163 I0.7777 J-0.7777
G02 X29.0000 Y46.6000 I0.4209 J-1.0162
G02 X29.4209 Y46.5163 I0.0000 J-1.0999
G02 X29.7777 Y46.2779 I-0.4209 J-1.0162
G02 X30.0162 Y45.9210 I-0.7777 J-0.7777
G02 X30.0999 Y45.5001 I-1.0162 J-0.4209
G02 X28.4501 Y44.5476 I-1.0999 J0.0000
G02 Y46.4527 I0.5499 J0.9525
G02 X30.0999 Y45.5001 I0.5499 J-0.9525
G00 X29.9000
G02 X28.5500 Y44.7207 Z-5.1667 I-0.9000 J0.0000 F900
G02 Y46.2795 Z-5.3333 I0.4500 J0.7794
G02 X29.9000 Y45.5001 Z-5.5000 I0.4500 J-0.7794
G02 X28.5500 Y44.7207 I-0.9000 J0.0000
G02 Y46.2795 I0.4500 J0.7794
G02 X29.9000 Y45.5001 I0.4500 J-0.7794
G02 X29.9354 Y45.1127 I-0.8803 J-0.2758 F1200
G02 X29.7777 Y44.7224 I-1.0189 J0.1847
G02 X29.4209 Y44.4840 I-0.7777 J0.7777
G02 X29.0000 Y44.4002 I-0.4209 J1.0162
G02 X28.5791 Y44.4840 I0.0000 J1.0999
G02 X28.2223 Y44.7224 I0.4209 J1.0162
G02 X27.9838 Y45.0792 I0.7777 J0.7777
G02 X27.9001 Y45.5001 I1.0162 J0.4209
G02 X27.9838 Y45.9210 I1.0999 J0.0000
G02 X28.2223 Y46.2779 I1.0162 J-0.4209
G02 X28.5791 Y46.5163 I0.7777 J-0.7777
G02 X29.0000 Y46.6000 I0.4209 J-1.0162
G02 X29.4209 Y46.5163 I0.0000 J-1.0999
G02 X29.7777 Y46.2779 I-0.4209 J-1.0162
G02 X30.0162 Y45.9210 I-0.7777 J-0.7777
G02 X30.0999 Y45.5001 I-1.0162 J-0.4209
G02 X28.4501 Y44.5476 I-1.0999 J0.0000
G02 Y46.4527 I0.5499 J0.9525
G02 X30.0999 Y45.5001 I0.5499 J-0.9525
G00 Z5.0000


(Nr. 11: Kreistasche 6)
G00 X6.8998 Y22.5000 Z5.0000
G00 Z0.5000
G02 X5.5498 Y21.7206 Z0.3333 I-0.9000 J0.0000 F900
G02 Y23.2794 Z0.1667 I0.4500 J0.7794
G02 X6.8998 Y22.5000 Z0.0000 I0.4500 J-0.7794
G02 X5.5498 Y21.7206 I-0.9000 J0.0000
G02 Y23.2794 I0.4500 J0.7794
G02 X6.8998 Y22.5000 I0.4500 J-0.7794
G02 X5.5498 Y21.7206 Z-0.3333 I-0.9000 J0.0000
G02 Y23.2794 Z-0.6667 I0.4500 J0.7794
G02 X6.8998 Y22.5000 Z-1.0000 I0.4500 J-0.7794
G02 X5.5498 Y21.7206 I-0.9000 J0.0000
G02 Y23.2794 I0.4500 J0.7794
G02 X6.8998 Y22.5000 I0.4500 J-0.7794
G02 X6.9353 Y22.1126 I-0.8803 J-0.2758 F1200
G02 X6.7777 Y21.7222 I-1.0190 J0.1842
G02 X6.4208 Y21.4837 I-0.7779 J0.7779
G02 X5.9998 Y21.3999 I-0.4210 J1.0163
G02 X5.5789 Y21.4837 I0.0000 J1.1001
G02 X5.2220 Y21.7222 I0.4210 J1.0163
G02 X4.9835 Y22.0790 I0.7779 J0.7779
G02 X4.8998 Y22.5000 I1.0163 J0.4210
G02 X4.9835 Y22.9210 I1.1001 J0.0000
G02 X5.2220 Y23.2779 I1.0163 J-0.4210
G02 X5.5789 Y23.5164 I0.7779 J-0.7779
G02 X5.9998 Y23.6001 I0.4210 J-1.0163
G02 X6.4208 Y23.5164 I0.0000 J-1.1001
G02 X6.7777 Y23.2779 I-0.4210 J-1.0163
G02 X7.0162 Y22.9210 I-0.7779 J-0.7779
G02 X7.0999 Y22.5000 I-1.0163 J-0.4210
G02 X5.4498 Y21.5473 I-1.1001 J0.0000
G02 Y23.4527 I0.5500 J0.9527
G02 X7.0999 Y22.5000 I0.5500 J-0.9527
G00 X6.8998
G02 X5.5498 Y21.7206 Z-1.3333 I-0.9000 J0.0000 F900
G02 Y23.2794 Z-1.6667 I0.4500 J0.7794
G02 X6.8998 Y22.5000 Z-2.0000 I0.4500 J-0.7794
G02 X5.5498 Y21.7206 I-0.9000 J0.0000
G02 Y23.2794 I0.4500 J0.7794
G02 X6.8998 Y22.5000 I0.4500 J-0.7794
G02 X6.9353 Y22.1126 I-0.8803 J-0.2758 F1200
G02 X6.7777 Y21.7222 I-1.0190 J0.1842
G02 X6.4208 Y21.4837 I-0.7779 J0.7779
G02 X5.9998 Y21.3999 I-0.4210 J1.0163
G02 X5.5789 Y21.4837 I0.0000 J1.1001
G02 X5.2220 Y21.7222 I0.4210 J1.0163
G02 X4.9835 Y22.0790 I0.7779 J0.7779
G02 X4.8998 Y22.5000 I1.0163 J0.4210
G02 X4.9835 Y22.9210 I1.1001 J0.0000
G02 X5.2220 Y23.2779 I1.0163 J-0.4210
G02 X5.5789 Y23.5164 I0.7779 J-0.7779
G02 X5.9998 Y23.6001 I0.4210 J-1.0163
G02 X6.4208 Y23.5164 I0.0000 J-1.1001
G02 X6.7777 Y23.2779 I-0.4210 J-1.0163
G02 X7.0162 Y22.9210 I-0.7779 J-0.7779
G02 X7.0999 Y22.5000 I-1.0163 J-0.4210
G02 X5.4498 Y21.5473 I-1.1001 J0.0000
G02 Y23.4527 I0.5500 J0.9527
G02 X7.0999 Y22.5000 I0.5500 J-0.9527
G00 X6.8998
G02 X5.5498 Y21.7206 Z-2.3333 I-0.9000 J0.0000 F900
G02 Y23.2794 Z-2.6667 I0.4500 J0.7794
G02 X6.8998 Y22.5000 Z-3.0000 I0.4500 J-0.7794
G02 X5.5498 Y21.7206 I-0.9000 J0.0000
G02 Y23.2794 I0.4500 J0.7794
G02 X6.8998 Y22.5000 I0.4500 J-0.7794
G02 X6.9353 Y22.1126 I-0.8803 J-0.2758 F1200
G02 X6.7777 Y21.7222 I-1.0190 J0.1842
G02 X6.4208 Y21.4837 I-0.7779 J0.7779
G02 X5.9998 Y21.3999 I-0.4210 J1.0163
G02 X5.5789 Y21.4837 I0.0000 J1.1001
G02 X5.2220 Y21.7222 I0.4210 J1.0163
G02 X4.9835 Y22.0790 I0.7779 J0.7779
G02 X4.8998 Y22.5000 I1.0163 J0.4210
G02 X4.9835 Y22.9210 I1.1001 J0.0000
G02 X5.2220 Y23.2779 I1.0163 J-0.4210
G02 X5.5789 Y23.5164 I0.7779 J-0.7779
G02 X5.9998 Y23.6001 I0.4210 J-1.0163
G02 X6.4208 Y23.5164 I0.0000 J-1.1001
G02 X6.7777 Y23.2779 I-0.4210 J-1.0163
G02 X7.0162 Y22.9210 I-0.7779 J-0.7779
G02 X7.0999 Y22.5000 I-1.0163 J-0.4210
G02 X5.4498 Y21.5473 I-1.1001 J0.0000
G02 Y23.4527 I0.5500 J0.9527
G02 X7.0999 Y22.5000 I0.5500 J-0.9527
G00 X6.8998
G02 X5.5498 Y21.7206 Z-3.3333 I-0.9000 J0.0000 F900
G02 Y23.2794 Z-3.6667 I0.4500 J0.7794
G02 X6.8998 Y22.5000 Z-4.0000 I0.4500 J-0.7794
G02 X5.5498 Y21.7206 I-0.9000 J0.0000
G02 Y23.2794 I0.4500 J0.7794
G02 X6.8998 Y22.5000 I0.4500 J-0.7794
G02 X6.9353 Y22.1126 I-0.8803 J-0.2758 F1200
G02 X6.7777 Y21.7222 I-1.0190 J0.1842
G02 X6.4208 Y21.4837 I-0.7779 J0.7779
G02 X5.9998 Y21.3999 I-0.4210 J1.0163
G02 X5.5789 Y21.4837 I0.0000 J1.1001
G02 X5.2220 Y21.7222 I0.4210 J1.0163
G02 X4.9835 Y22.0790 I0.7779 J0.7779
G02 X4.8998 Y22.5000 I1.0163 J0.4210
G02 X4.9835 Y22.9210 I1.1001 J0.0000
G02 X5.2220 Y23.2779 I1.0163 J-0.4210
G02 X5.5789 Y23.5164 I0.7779 J-0.7779
G02 X5.9998 Y23.6001 I0.4210 J-1.0163
G02 X6.4208 Y23.5164 I0.0000 J-1.1001
G02 X6.7777 Y23.2779 I-0.4210 J-1.0163
G02 X7.0162 Y22.9210 I-0.7779 J-0.7779
G02 X7.0999 Y22.5000 I-1.0163 J-0.4210
G02 X5.4498 Y21.5473 I-1.1001 J0.0000
G02 Y23.4527 I0.5500 J0.9527
G02 X7.0999 Y22.5000 I0.5500 J-0.9527
G00 X6.8998
G02 X5.5498 Y21.7206 Z-4.3333 I-0.9000 J0.0000 F900
G02 Y23.2794 Z-4.6667 I0.4500 J0.7794
G02 X6.8998 Y22.5000 Z-5.0000 I0.4500 J-0.7794
G02 X5.5498 Y21.7206 I-0.9000 J0.0000
G02 Y23.2794 I0.4500 J0.7794
G02 X6.8998 Y22.5000 I0.4500 J-0.7794
G02 X6.9353 Y22.1126 I-0.8803 J-0.2758 F1200
G02 X6.7777 Y21.7222 I-1.0190 J0.1842
G02 X6.4208 Y21.4837 I-0.7779 J0.7779
G02 X5.9998 Y21.3999 I-0.4210 J1.0163
G02 X5.5789 Y21.4837 I0.0000 J1.1001
G02 X5.2220 Y21.7222 I0.4210 J1.0163
G02 X4.9835 Y22.0790 I0.7779 J0.7779
G02 X4.8998 Y22.5000 I1.0163 J0.4210
G02 X4.9835 Y22.9210 I1.1001 J0.0000
G02 X5.2220 Y23.2779 I1.0163 J-0.4210
G02 X5.5789 Y23.5164 I0.7779 J-0.7779
G02 X5.9998 Y23.6001 I0.4210 J-1.0163
G02 X6.4208 Y23.5164 I0.0000 J-1.1001
G02 X6.7777 Y23.2779 I-0.4210 J-1.0163
G02 X7.0162 Y22.9210 I-0.7779 J-0.7779
G02 X7.0999 Y22.5000 I-1.0163 J-0.4210
G02 X5.4498 Y21.5473 I-1.1001 J0.0000
G02 Y23.4527 I0.5500 J0.9527
G02 X7.0999 Y22.5000 I0.5500 J-0.9527
G00 X6.8998
G02 X5.5498 Y21.7206 Z-5.1667 I-0.9000 J0.0000 F900
G02 Y23.2794 Z-5.3333 I0.4500 J0.7794
G02 X6.8998 Y22.5000 Z-5.5000 I0.4500 J-0.7794
G02 X5.5498 Y21.7206 I-0.9000 J0.0000
G02 Y23.2794 I0.4500 J0.7794
G02 X6.8998 Y22.5000 I0.4500 J-0.7794
G02 X6.9353 Y22.1126 I-0.8803 J-0.2758 F1200
G02 X6.7777 Y21.7222 I-1.0190 J0.1842
G02 X6.4208 Y21.4837 I-0.7779 J0.7779
G02 X5.9998 Y21.3999 I-0.4210 J1.0163
G02 X5.5789 Y21.4837 I0.0000 J1.1001
G02 X5.2220 Y21.7222 I0.4210 J1.0163
G02 X4.9835 Y22.0790 I0.7779 J0.7779
G02 X4.8998 Y22.5000 I1.0163 J0.4210
G02 X4.9835 Y22.9210 I1.1001 J0.0000
G02 X5.2220 Y23.2779 I1.0163 J-0.4210
G02 X5.5789 Y23.5164 I0.7779 J-0.7779
G02 X5.9998 Y23.6001 I0.4210 J-1.0163
G02 X6.4208 Y23.5164 I0.0000 J-1.1001
G02 X6.7777 Y23.2779 I-0.4210 J-1.0163
G02 X7.0162 Y22.9210 I-0.7779 J-0.7779
G02 X7.0999 Y22.5000 I-1.0163 J-0.4210
G02 X5.4498 Y21.5473 I-1.1001 J0.0000
G02 Y23.4527 I0.5500 J0.9527
G02 X7.0999 Y22.5000 I0.5500 J-0.9527
G00 Z5.0000


(Nr. 12: Kreistasche 5)
G00 X11.4000 Y27.5998 Z5.0000
G00 Z0.5000
G02 X10.0500 Y26.8204 Z0.3333 I-0.9000 J0.0000 F900
G02 Y28.3793 Z0.1667 I0.4500 J0.7794
G02 X11.4000 Y27.5998 Z0.0000 I0.4500 J-0.7794
G02 X10.0500 Y26.8204 I-0.9000 J0.0000
G02 Y28.3793 I0.4500 J0.7794
G02 X11.4000 Y27.5998 I0.4500 J-0.7794
G02 X10.0500 Y26.8204 Z-0.3333 I-0.9000 J0.0000
G02 Y28.3793 Z-0.6667 I0.4500 J0.7794
G02 X11.4000 Y27.5998 Z-1.0000 I0.4500 J-0.7794
G02 X10.0500 Y26.8204 I-0.9000 J0.0000
G02 Y28.3793 I0.4500 J0.7794
G02 X11.4000 Y27.5998 I0.4500 J-0.7794
G02 X11.4354 Y27.2124 I-0.8803 J-0.2758 F1200
G02 X11.2779 Y26.8220 I-1.0190 J0.1842
G02 X10.9210 Y26.5835 I-0.7779 J0.7779
G02 X10.5000 Y26.4997 I-0.4210 J1.0163
G02 X10.0790 Y26.5835 I0.0000 J1.1001
G02 X9.7221 Y26.8220 I0.4210 J1.0163
G02 X9.4836 Y27.1788 I0.7779 J0.7779
G02 X9.3999 Y27.5998 I1.0163 J0.4210
G02 X9.4836 Y28.0208 I1.1001 J0.0000
G02 X9.7221 Y28.3777 I1.0163 J-0.4210
G02 X10.0790 Y28.6162 I0.7779 J-0.7779
G02 X10.5000 Y28.6999 I0.4210 J-1.0163
G02 X10.9210 Y28.6162 I0.0000 J-1.1001
G02 X11.2779 Y28.3777 I-0.4210 J-1.0163
G02 X11.5163 Y28.0208 I-0.7779 J-0.7779
G02 X11.6001 Y27.5998 I-1.0163 J-0.4210
G02 X9.9499 Y26.6471 I-1.1001 J0.0000
G02 Y28.5525 I0.5500 J0.9527
G02 X11.6001 Y27.5998 I0.5500 J-0.9527
G00 X11.4000
G02 X10.0500 Y26.8204 Z-1.3333 I-0.9000 J0.0000 F900
G02 Y28.3793 Z-1.6667 I0.4500 J0.7794
G02 X11.4000 Y27.5998 Z-2.0000 I0.4500 J-0.7794
G02 X10.0500 Y26.8204 I-0.9000 J0.0000
G02 Y28.3793 I0.4500 J0.7794
G02 X11.4000 Y27.5998 I0.4500 J-0.7794
G02 X11.4354 Y27.2124 I-0.8803 J-0.2758 F1200
G02 X11.2779 Y26.8220 I-1.0190 J0.1842
G02 X10.9210 Y26.5835 I-0.7779 J0.7779
G02 X10.5000 Y26.4997 I-0.4210 J1.0163
G02 X10.0790 Y26.5835 I0.0000 J1.1001
G02 X9.7221 Y26.8220 I0.4210 J1.0163
G02 X9.4836 Y27.1788 I0.7779 J0.7779
G02 X9.3999 Y27.5998 I1.0163 J0.4210
G02 X9.4836 Y28.0208 I1.1001 J0.0000
G02 X9.7221 Y28.3777 I1.0163 J-0.4210
G02 X10.0790 Y28.6162 I0.7779 J-0.7779
G02 X10.5000 Y28.6999 I0.4210 J-1.0163
G02 X10.9210 Y28.6162 I0.0000 J-1.1001
G02 X11.2779 Y28.3777 I-0.4210 J-1.0163
G02 X11.5163 Y28.0208 I-0.7779 J-0.7779
G02 X11.6001 Y27.5998 I-1.0163 J-0.4210
G02 X9.9499 Y26.6471 I-1.1001 J0.0000
G02 Y28.5525 I0.5500 J0.9527
G02 X11.6001 Y27.5998 I0.5500 J-0.9527
G00 X11.4000
G02 X10.0500 Y26.8204 Z-2.3333 I-0.9000 J0.0000 F900
G02 Y28.3793 Z-2.6667 I0.4500 J0.7794
G02 X11.4000 Y27.5998 Z-3.0000 I0.4500 J-0.7794
G02 X10.0500 Y26.8204 I-0.9000 J0.0000
G02 Y28.3793 I0.4500 J0.7794
G02 X11.4000 Y27.5998 I0.4500 J-0.7794
G02 X11.4354 Y27.2124 I-0.8803 J-0.2758 F1200
G02 X11.2779 Y26.8220 I-1.0190 J0.1842
G02 X10.9210 Y26.5835 I-0.7779 J0.7779
G02 X10.5000 Y26.4997 I-0.4210 J1.0163
G02 X10.0790 Y26.5835 I0.0000 J1.1001
G02 X9.7221 Y26.8220 I0.4210 J1.0163
G02 X9.4836 Y27.1788 I0.7779 J0.7779
G02 X9.3999 Y27.5998 I1.0163 J0.4210
G02 X9.4836 Y28.0208 I1.1001 J0.0000
G02 X9.7221 Y28.3777 I1.0163 J-0.4210
G02 X10.0790 Y28.6162 I0.7779 J-0.7779
G02 X10.5000 Y28.6999 I0.4210 J-1.0163
G02 X10.9210 Y28.6162 I0.0000 J-1.1001
G02 X11.2779 Y28.3777 I-0.4210 J-1.0163
G02 X11.5163 Y28.0208 I-0.7779 J-0.7779
G02 X11.6001 Y27.5998 I-1.0163 J-0.4210
G02 X9.9499 Y26.6471 I-1.1001 J0.0000
G02 Y28.5525 I0.5500 J0.9527
G02 X11.6001 Y27.5998 I0.5500 J-0.9527
G00 X11.4000
G02 X10.0500 Y26.8204 Z-3.3333 I-0.9000 J0.0000 F900
G02 Y28.3793 Z-3.6667 I0.4500 J0.7794
G02 X11.4000 Y27.5998 Z-4.0000 I0.4500 J-0.7794
G02 X10.0500 Y26.8204 I-0.9000 J0.0000
G02 Y28.3793 I0.4500 J0.7794
G02 X11.4000 Y27.5998 I0.4500 J-0.7794
G02 X11.4354 Y27.2124 I-0.8803 J-0.2758 F1200
G02 X11.2779 Y26.8220 I-1.0190 J0.1842
G02 X10.9210 Y26.5835 I-0.7779 J0.7779
G02 X10.5000 Y26.4997 I-0.4210 J1.0163
G02 X10.0790 Y26.5835 I0.0000 J1.1001
G02 X9.7221 Y26.8220 I0.4210 J1.0163
G02 X9.4836 Y27.1788 I0.7779 J0.7779
G02 X9.3999 Y27.5998 I1.0163 J0.4210
G02 X9.4836 Y28.0208 I1.1001 J0.0000
G02 X9.7221 Y28.3777 I1.0163 J-0.4210
G02 X10.0790 Y28.6162 I0.7779 J-0.7779
G02 X10.5000 Y28.6999 I0.4210 J-1.0163
G02 X10.9210 Y28.6162 I0.0000 J-1.1001
G02 X11.2779 Y28.3777 I-0.4210 J-1.0163
G02 X11.5163 Y28.0208 I-0.7779 J-0.7779
G02 X11.6001 Y27.5998 I-1.0163 J-0.4210
G02 X9.9499 Y26.6471 I-1.1001 J0.0000
G02 Y28.5525 I0.5500 J0.9527
G02 X11.6001 Y27.5998 I0.5500 J-0.9527
G00 X11.4000
G02 X10.0500 Y26.8204 Z-4.3333 I-0.9000 J0.0000 F900
G02 Y28.3793 Z-4.6667 I0.4500 J0.7794
G02 X11.4000 Y27.5998 Z-5.0000 I0.4500 J-0.7794
G02 X10.0500 Y26.8204 I-0.9000 J0.0000
G02 Y28.3793 I0.4500 J0.7794
G02 X11.4000 Y27.5998 I0.4500 J-0.7794
G02 X11.4354 Y27.2124 I-0.8803 J-0.2758 F1200
G02 X11.2779 Y26.8220 I-1.0190 J0.1842
G02 X10.9210 Y26.5835 I-0.7779 J0.7779
G02 X10.5000 Y26.4997 I-0.4210 J1.0163
G02 X10.0790 Y26.5835 I0.0000 J1.1001
G02 X9.7221 Y26.8220 I0.4210 J1.0163
G02 X9.4836 Y27.1788 I0.7779 J0.7779
G02 X9.3999 Y27.5998 I1.0163 J0.4210
G02 X9.4836 Y28.0208 I1.1001 J0.0000
G02 X9.7221 Y28.3777 I1.0163 J-0.4210
G02 X10.0790 Y28.6162 I0.7779 J-0.7779
G02 X10.5000 Y28.6999 I0.4210 J-1.0163
G02 X10.9210 Y28.6162 I0.0000 J-1.1001
G02 X11.2779 Y28.3777 I-0.4210 J-1.0163
G02 X11.5163 Y28.0208 I-0.7779 J-0.7779
G02 X11.6001 Y27.5998 I-1.0163 J-0.4210
G02 X9.9499 Y26.6471 I-1.1001 J0.0000
G02 Y28.5525 I0.5500 J0.9527
G02 X11.6001 Y27.5998 I0.5500 J-0.9527
G00 X11.4000
G02 X10.0500 Y26.8204 Z-5.1667 I-0.9000 J0.0000 F900
G02 Y28.3793 Z-5.3333 I0.4500 J0.7794
G02 X11.4000 Y27.5998 Z-5.5000 I0.4500 J-0.7794
G02 X10.0500 Y26.8204 I-0.9000 J0.0000
G02 Y28.3793 I0.4500 J0.7794
G02 X11.4000 Y27.5998 I0.4500 J-0.7794
G02 X11.4354 Y27.2124 I-0.8803 J-0.2758 F1200
G02 X11.2779 Y26.8220 I-1.0190 J0.1842
G02 X10.9210 Y26.5835 I-0.7779 J0.7779
G02 X10.5000 Y26.4997 I-0.4210 J1.0163
G02 X10.0790 Y26.5835 I0.0000 J1.1001
G02 X9.7221 Y26.8220 I0.4210 J1.0163
G02 X9.4836 Y27.1788 I0.7779 J0.7779
G02 X9.3999 Y27.5998 I1.0163 J0.4210
G02 X9.4836 Y28.0208 I1.1001 J0.0000
G02 X9.7221 Y28.3777 I1.0163 J-0.4210
G02 X10.0790 Y28.6162 I0.7779 J-0.7779
G02 X10.5000 Y28.6999 I0.4210 J-1.0163
G02 X10.9210 Y28.6162 I0.0000 J-1.1001
G02 X11.2779 Y28.3777 I-0.4210 J-1.0163
G02 X11.5163 Y28.0208 I-0.7779 J-0.7779
G02 X11.6001 Y27.5998 I-1.0163 J-0.4210
G02 X9.9499 Y26.6471 I-1.1001 J0.0000
G02 Y28.5525 I0.5500 J0.9527
G02 X11.6001 Y27.5998 I0.5500 J-0.9527
G00 Z5.0000


(Nr. 13: Kreistasche 3)
G00 X25.3999 Y27.5998 Z5.0000
G00 Z0.5000
G02 X24.0499 Y26.8204 Z0.3333 I-0.9000 J0.0000 F900
G02 Y28.3793 Z0.1667 I0.4500 J0.7794
G02 X25.3999 Y27.5998 Z0.0000 I0.4500 J-0.7794
G02 X24.0499 Y26.8204 I-0.9000 J0.0000
G02 Y28.3793 I0.4500 J0.7794
G02 X25.3999 Y27.5998 I0.4500 J-0.7794
G02 X24.0499 Y26.8204 Z-0.3333 I-0.9000 J0.0000
G02 Y28.3793 Z-0.6667 I0.4500 J0.7794
G02 X25.3999 Y27.5998 Z-1.0000 I0.4500 J-0.7794
G02 X24.0499 Y26.8204 I-0.9000 J0.0000
G02 Y28.3793 I0.4500 J0.7794
G02 X25.3999 Y27.5998 I0.4500 J-0.7794
G02 X25.4353 Y27.2124 I-0.8803 J-0.2758 F1200
G02 X25.2778 Y26.8219 I-1.0190 J0.1840
G02 X24.9209 Y26.5834 I-0.7779 J0.7779
G02 X24.4999 Y26.4997 I-0.4210 J1.0164
G02 X24.0789 Y26.5834 I0.0000 J1.1002
G02 X23.7220 Y26.8219 I0.4210 J1.0164
G02 X23.4835 Y27.1788 I0.7779 J0.7779
G02 X23.3997 Y27.5998 I1.0164 J0.4210
G02 X23.4835 Y28.0209 I1.1002 J0.0000
G02 X23.7220 Y28.3778 I1.0164 J-0.4210
G02 X24.0789 Y28.6163 I0.7779 J-0.7779
G02 X24.4999 Y28.7000 I0.4210 J-1.0164
G02 X24.9209 Y28.6163 I0.0000 J-1.1002
G02 X25.2778 Y28.3778 I-0.4210 J-1.0164
G02 X25.5163 Y28.0209 I-0.7779 J-0.7779
G02 X25.6001 Y27.5998 I-1.0164 J-0.4210
G02 X23.9498 Y26.6471 I-1.1002 J0.0000
G02 Y28.5526 I0.5501 J0.9528
G02 X25.6001 Y27.5998 I0.5501 J-0.9528
G00 X25.3999
G02 X24.0499 Y26.8204 Z-1.3333 I-0.9000 J0.0000 F900
G02 Y28.3793 Z-1.6667 I0.4500 J0.7794
G02 X25.3999 Y27.5998 Z-2.0000 I0.4500 J-0.7794
G02 X24.0499 Y26.8204 I-0.9000 J0.0000
G02 Y28.3793 I0.4500 J0.7794
G02 X25.3999 Y27.5998 I0.4500 J-0.7794
G02 X25.4353 Y27.2124 I-0.8803 J-0.2758 F1200
G02 X25.2778 Y26.8219 I-1.0190 J0.1840
G02 X24.9209 Y26.5834 I-0.7779 J0.7779
G02 X24.4999 Y26.4997 I-0.4210 J1.0164
G02 X24.0789 Y26.5834 I0.0000 J1.1002
G02 X23.7220 Y26.8219 I0.4210 J1.0164
G02 X23.4835 Y27.1788 I0.7779 J0.7779
G02 X23.3997 Y27.5998 I1.0164 J0.4210
G02 X23.4835 Y28.0209 I1.1002 J0.0000
G02 X23.7220 Y28.3778 I1.0164 J-0.4210
G02 X24.0789 Y28.6163 I0.7779 J-0.7779
G02 X24.4999 Y28.7000 I0.4210 J-1.0164
G02 X24.9209 Y28.6163 I0.0000 J-1.1002
G02 X25.2778 Y28.3778 I-0.4210 J-1.0164
G02 X25.5163 Y28.0209 I-0.7779 J-0.7779
G02 X25.6001 Y27.5998 I-1.0164 J-0.4210
G02 X23.9498 Y26.6471 I-1.1002 J0.0000
G02 Y28.5526 I0.5501 J0.9528
G02 X25.6001 Y27.5998 I0.5501 J-0.9528
G00 X25.3999
G02 X24.0499 Y26.8204 Z-2.3333 I-0.9000 J0.0000 F900
G02 Y28.3793 Z-2.6667 I0.4500 J0.7794
G02 X25.3999 Y27.5998 Z-3.0000 I0.4500 J-0.7794
G02 X24.0499 Y26.8204 I-0.9000 J0.0000
G02 Y28.3793 I0.4500 J0.7794
G02 X25.3999 Y27.5998 I0.4500 J-0.7794
G02 X25.4353 Y27.2124 I-0.8803 J-0.2758 F1200
G02 X25.2778 Y26.8219 I-1.0190 J0.1840
G02 X24.9209 Y26.5834 I-0.7779 J0.7779
G02 X24.4999 Y26.4997 I-0.4210 J1.0164
G02 X24.0789 Y26.5834 I0.0000 J1.1002
G02 X23.7220 Y26.8219 I0.4210 J1.0164
G02 X23.4835 Y27.1788 I0.7779 J0.7779
G02 X23.3997 Y27.5998 I1.0164 J0.4210
G02 X23.4835 Y28.0209 I1.1002 J0.0000
G02 X23.7220 Y28.3778 I1.0164 J-0.4210
G02 X24.0789 Y28.6163 I0.7779 J-0.7779
G02 X24.4999 Y28.7000 I0.4210 J-1.0164
G02 X24.9209 Y28.6163 I0.0000 J-1.1002
G02 X25.2778 Y28.3778 I-0.4210 J-1.0164
G02 X25.5163 Y28.0209 I-0.7779 J-0.7779
G02 X25.6001 Y27.5998 I-1.0164 J-0.4210
G02 X23.9498 Y26.6471 I-1.1002 J0.0000
G02 Y28.5526 I0.5501 J0.9528
G02 X25.6001 Y27.5998 I0.5501 J-0.9528
G00 X25.3999
G02 X24.0499 Y26.8204 Z-3.3333 I-0.9000 J0.0000 F900
G02 Y28.3793 Z-3.6667 I0.4500 J0.7794
G02 X25.3999 Y27.5998 Z-4.0000 I0.4500 J-0.7794
G02 X24.0499 Y26.8204 I-0.9000 J0.0000
G02 Y28.3793 I0.4500 J0.7794
G02 X25.3999 Y27.5998 I0.4500 J-0.7794
G02 X25.4353 Y27.2124 I-0.8803 J-0.2758 F1200
G02 X25.2778 Y26.8219 I-1.0190 J0.1840
G02 X24.9209 Y26.5834 I-0.7779 J0.7779
G02 X24.4999 Y26.4997 I-0.4210 J1.0164
G02 X24.0789 Y26.5834 I0.0000 J1.1002
G02 X23.7220 Y26.8219 I0.4210 J1.0164
G02 X23.4835 Y27.1788 I0.7779 J0.7779
G02 X23.3997 Y27.5998 I1.0164 J0.4210
G02 X23.4835 Y28.0209 I1.1002 J0.0000
G02 X23.7220 Y28.3778 I1.0164 J-0.4210
G02 X24.0789 Y28.6163 I0.7779 J-0.7779
G02 X24.4999 Y28.7000 I0.4210 J-1.0164
G02 X24.9209 Y28.6163 I0.0000 J-1.1002
G02 X25.2778 Y28.3778 I-0.4210 J-1.0164
G02 X25.5163 Y28.0209 I-0.7779 J-0.7779
G02 X25.6001 Y27.5998 I-1.0164 J-0.4210
G02 X23.9498 Y26.6471 I-1.1002 J0.0000
G02 Y28.5526 I0.5501 J0.9528
G02 X25.6001 Y27.5998 I0.5501 J-0.9528
G00 X25.3999
G02 X24.0499 Y26.8204 Z-4.3333 I-0.9000 J0.0000 F900
G02 Y28.3793 Z-4.6667 I0.4500 J0.7794
G02 X25.3999 Y27.5998 Z-5.0000 I0.4500 J-0.7794
G02 X24.0499 Y26.8204 I-0.9000 J0.0000
G02 Y28.3793 I0.4500 J0.7794
G02 X25.3999 Y27.5998 I0.4500 J-0.7794
G02 X25.4353 Y27.2124 I-0.8803 J-0.2758 F1200
G02 X25.2778 Y26.8219 I-1.0190 J0.1840
G02 X24.9209 Y26.5834 I-0.7779 J0.7779
G02 X24.4999 Y26.4997 I-0.4210 J1.0164
G02 X24.0789 Y26.5834 I0.0000 J1.1002
G02 X23.7220 Y26.8219 I0.4210 J1.0164
G02 X23.4835 Y27.1788 I0.7779 J0.7779
G02 X23.3997 Y27.5998 I1.0164 J0.4210
G02 X23.4835 Y28.0209 I1.1002 J0.0000
G02 X23.7220 Y28.3778 I1.0164 J-0.4210
G02 X24.0789 Y28.6163 I0.7779 J-0.7779
G02 X24.4999 Y28.7000 I0.4210 J-1.0164
G02 X24.9209 Y28.6163 I0.0000 J-1.1002
G02 X25.2778 Y28.3778 I-0.4210 J-1.0164
G02 X25.5163 Y28.0209 I-0.7779 J-0.7779
G02 X25.6001 Y27.5998 I-1.0164 J-0.4210
G02 X23.9498 Y26.6471 I-1.1002 J0.0000
G02 Y28.5526 I0.5501 J0.9528
G02 X25.6001 Y27.5998 I0.5501 J-0.9528
G00 X25.3999
G02 X24.0499 Y26.8204 Z-5.1667 I-0.9000 J0.0000 F900
G02 Y28.3793 Z-5.3333 I0.4500 J0.7794
G02 X25.3999 Y27.5998 Z-5.5000 I0.4500 J-0.7794
G02 X24.0499 Y26.8204 I-0.9000 J0.0000
G02 Y28.3793 I0.4500 J0.7794
G02 X25.3999 Y27.5998 I0.4500 J-0.7794
G02 X25.4353 Y27.2124 I-0.8803 J-0.2758 F1200
G02 X25.2778 Y26.8219 I-1.0190 J0.1840
G02 X24.9209 Y26.5834 I-0.7779 J0.7779
G02 X24.4999 Y26.4997 I-0.4210 J1.0164
G02 X24.0789 Y26.5834 I0.0000 J1.1002
G02 X23.7220 Y26.8219 I0.4210 J1.0164
G02 X23.4835 Y27.1788 I0.7779 J0.7779
G02 X23.3997 Y27.5998 I1.0164 J0.4210
G02 X23.4835 Y28.0209 I1.1002 J0.0000
G02 X23.7220 Y28.3778 I1.0164 J-0.4210
G02 X24.0789 Y28.6163 I0.7779 J-0.7779
G02 X24.4999 Y28.7000 I0.4210 J-1.0164
G02 X24.9209 Y28.6163 I0.0000 J-1.1002
G02 X25.2778 Y28.3778 I-0.4210 J-1.0164
G02 X25.5163 Y28.0209 I-0.7779 J-0.7779
G02 X25.6001 Y27.5998 I-1.0164 J-0.4210
G02 X23.9498 Y26.6471 I-1.1002 J0.0000
G02 Y28.5526 I0.5501 J0.9528
G02 X25.6001 Y27.5998 I0.5501 J-0.9528
G00 Z5.0000


(Nr. 14: Kreistasche 4)
G00 X29.9000 Y22.5000 Z5.0000
G00 Z0.5000
G02 X28.5500 Y21.7206 Z0.3333 I-0.9000 J0.0000 F900
G02 Y23.2794 Z0.1667 I0.4500 J0.7794
G02 X29.9000 Y22.5000 Z0.0000 I0.4500 J-0.7794
G02 X28.5500 Y21.7206 I-0.9000 J0.0000
G02 Y23.2794 I0.4500 J0.7794
G02 X29.9000 Y22.5000 I0.4500 J-0.7794
G02 X28.5500 Y21.7206 Z-0.3333 I-0.9000 J0.0000
G02 Y23.2794 Z-0.6667 I0.4500 J0.7794
G02 X29.9000 Y22.5000 Z-1.0000 I0.4500 J-0.7794
G02 X28.5500 Y21.7206 I-0.9000 J0.0000
G02 Y23.2794 I0.4500 J0.7794
G02 X29.9000 Y22.5000 I0.4500 J-0.7794
G02 X29.9354 Y22.1125 I-0.8803 J-0.2758 F1200
G02 X29.7779 Y21.7221 I-1.0190 J0.1841
G02 X29.4210 Y21.4836 I-0.7779 J0.7779
G02 X29.0000 Y21.3999 I-0.4210 J1.0164
G02 X28.5790 Y21.4836 I0.0000 J1.1001
G02 X28.2221 Y21.7221 I0.4210 J1.0164
G02 X27.9836 Y22.0790 I0.7779 J0.7779
G02 X27.8999 Y22.5000 I1.0164 J0.4210
G02 X27.9836 Y22.9210 I1.1001 J0.0000
G02 X28.2221 Y23.2779 I1.0164 J-0.4210
G02 X28.5790 Y23.5164 I0.7779 J-0.7779
G02 X29.0000 Y23.6001 I0.4210 J-1.0164
G02 X29.4210 Y23.5164 I0.0000 J-1.1001
G02 X29.7779 Y23.2779 I-0.4210 J-1.0164
G02 X30.0164 Y22.9210 I-0.7779 J-0.7779
G02 X30.1001 Y22.5000 I-1.0164 J-0.4210
G02 X28.4499 Y21.5473 I-1.1001 J0.0000
G02 Y23.4527 I0.5501 J0.9527
G02 X30.1001 Y22.5000 I0.5501 J-0.9527
G00 X29.9000
G02 X28.5500 Y21.7206 Z-1.3333 I-0.9000 J0.0000 F900
G02 Y23.2794 Z-1.6667 I0.4500 J0.7794
G02 X29.9000 Y22.5000 Z-2.0000 I0.4500 J-0.7794
G02 X28.5500 Y21.7206 I-0.9000 J0.0000
G02 Y23.2794 I0.4500 J0.7794
G02 X29.9000 Y22.5000 I0.4500 J-0.7794
G02 X29.9354 Y22.1125 I-0.8803 J-0.2758 F1200
G02 X29.7779 Y21.7221 I-1.0190 J0.1841
G02 X29.4210 Y21.4836 I-0.7779 J0.7779
G02 X29.0000 Y21.3999 I-0.4210 J1.0164
G02 X28.5790 Y21.4836 I0.0000 J1.1001
G02 X28.2221 Y21.7221 I0.4210 J1.0164
G02 X27.9836 Y22.0790 I0.7779 J0.7779
G02 X27.8999 Y22.5000 I1.0164 J0.4210
G02 X27.9836 Y22.9210 I1.1001 J0.0000
G02 X28.2221 Y23.2779 I1.0164 J-0.4210
G02 X28.5790 Y23.5164 I0.7779 J-0.7779
G02 X29.0000 Y23.6001 I0.4210 J-1.0164
G02 X29.4210 Y23.5164 I0.0000 J-1.1001
G02 X29.7779 Y23.2779 I-0.4210 J-1.0164
G02 X30.0164 Y22.9210 I-0.7779 J-0.7779
G02 X30.1001 Y22.5000 I-1.0164 J-0.4210
G02 X28.4499 Y21.5473 I-1.1001 J0.0000
G02 Y23.4527 I0.5501 J0.9527
G02 X30.1001 Y22.5000 I0.5501 J-0.9527
G00 X29.9000
G02 X28.5500 Y21.7206 Z-2.3333 I-0.9000 J0.0000 F900
G02 Y23.2794 Z-2.6667 I0.4500 J0.7794
G02 X29.9000 Y22.5000 Z-3.0000 I0.4500 J-0.7794
G02 X28.5500 Y21.7206 I-0.9000 J0.0000
G02 Y23.2794 I0.4500 J0.7794
G02 X29.9000 Y22.5000 I0.4500 J-0.7794
G02 X29.9354 Y22.1125 I-0.8803 J-0.2758 F1200
G02 X29.7779 Y21.7221 I-1.0190 J0.1841
G02 X29.4210 Y21.4836 I-0.7779 J0.7779
G02 X29.0000 Y21.3999 I-0.4210 J1.0164
G02 X28.5790 Y21.4836 I0.0000 J1.1001
G02 X28.2221 Y21.7221 I0.4210 J1.0164
G02 X27.9836 Y22.0790 I0.7779 J0.7779
G02 X27.8999 Y22.5000 I1.0164 J0.4210
G02 X27.9836 Y22.9210 I1.1001 J0.0000
G02 X28.2221 Y23.2779 I1.0164 J-0.4210
G02 X28.5790 Y23.5164 I0.7779 J-0.7779
G02 X29.0000 Y23.6001 I0.4210 J-1.0164
G02 X29.4210 Y23.5164 I0.0000 J-1.1001
G02 X29.7779 Y23.2779 I-0.4210 J-1.0164
G02 X30.0164 Y22.9210 I-0.7779 J-0.7779
G02 X30.1001 Y22.5000 I-1.0164 J-0.4210
G02 X28.4499 Y21.5473 I-1.1001 J0.0000
G02 Y23.4527 I0.5501 J0.9527
G02 X30.1001 Y22.5000 I0.5501 J-0.9527
G00 X29.9000
G02 X28.5500 Y21.7206 Z-3.3333 I-0.9000 J0.0000 F900
G02 Y23.2794 Z-3.6667 I0.4500 J0.7794
G02 X29.9000 Y22.5000 Z-4.0000 I0.4500 J-0.7794
G02 X28.5500 Y21.7206 I-0.9000 J0.0000
G02 Y23.2794 I0.4500 J0.7794
G02 X29.9000 Y22.5000 I0.4500 J-0.7794
G02 X29.9354 Y22.1125 I-0.8803 J-0.2758 F1200
G02 X29.7779 Y21.7221 I-1.0190 J0.1841
G02 X29.4210 Y21.4836 I-0.7779 J0.7779
G02 X29.0000 Y21.3999 I-0.4210 J1.0164
G02 X28.5790 Y21.4836 I0.0000 J1.1001
G02 X28.2221 Y21.7221 I0.4210 J1.0164
G02 X27.9836 Y22.0790 I0.7779 J0.7779
G02 X27.8999 Y22.5000 I1.0164 J0.4210
G02 X27.9836 Y22.9210 I1.1001 J0.0000
G02 X28.2221 Y23.2779 I1.0164 J-0.4210
G02 X28.5790 Y23.5164 I0.7779 J-0.7779
G02 X29.0000 Y23.6001 I0.4210 J-1.0164
G02 X29.4210 Y23.5164 I0.0000 J-1.1001
G02 X29.7779 Y23.2779 I-0.4210 J-1.0164
G02 X30.0164 Y22.9210 I-0.7779 J-0.7779
G02 X30.1001 Y22.5000 I-1.0164 J-0.4210
G02 X28.4499 Y21.5473 I-1.1001 J0.0000
G02 Y23.4527 I0.5501 J0.9527
G02 X30.1001 Y22.5000 I0.5501 J-0.9527
G00 X29.9000
G02 X28.5500 Y21.7206 Z-4.3333 I-0.9000 J0.0000 F900
G02 Y23.2794 Z-4.6667 I0.4500 J0.7794
G02 X29.9000 Y22.5000 Z-5.0000 I0.4500 J-0.7794
G02 X28.5500 Y21.7206 I-0.9000 J0.0000
G02 Y23.2794 I0.4500 J0.7794
G02 X29.9000 Y22.5000 I0.4500 J-0.7794
G02 X29.9354 Y22.1125 I-0.8803 J-0.2758 F1200
G02 X29.7779 Y21.7221 I-1.0190 J0.1841
G02 X29.4210 Y21.4836 I-0.7779 J0.7779
G02 X29.0000 Y21.3999 I-0.4210 J1.0164
G02 X28.5790 Y21.4836 I0.0000 J1.1001
G02 X28.2221 Y21.7221 I0.4210 J1.0164
G02 X27.9836 Y22.0790 I0.7779 J0.7779
G02 X27.8999 Y22.5000 I1.0164 J0.4210
G02 X27.9836 Y22.9210 I1.1001 J0.0000
G02 X28.2221 Y23.2779 I1.0164 J-0.4210
G02 X28.5790 Y23.5164 I0.7779 J-0.7779
G02 X29.0000 Y23.6001 I0.4210 J-1.0164
G02 X29.4210 Y23.5164 I0.0000 J-1.1001
G02 X29.7779 Y23.2779 I-0.4210 J-1.0164
G02 X30.0164 Y22.9210 I-0.7779 J-0.7779
G02 X30.1001 Y22.5000 I-1.0164 J-0.4210
G02 X28.4499 Y21.5473 I-1.1001 J0.0000
G02 Y23.4527 I0.5501 J0.9527
G02 X30.1001 Y22.5000 I0.5501 J-0.9527
G00 X29.9000
G02 X28.5500 Y21.7206 Z-5.1667 I-0.9000 J0.0000 F900
G02 Y23.2794 Z-5.3333 I0.4500 J0.7794
G02 X29.9000 Y22.5000 Z-5.5000 I0.4500 J-0.7794
G02 X28.5500 Y21.7206 I-0.9000 J0.0000
G02 Y23.2794 I0.4500 J0.7794
G02 X29.9000 Y22.5000 I0.4500 J-0.7794
G02 X29.9354 Y22.1125 I-0.8803 J-0.2758 F1200
G02 X29.7779 Y21.7221 I-1.0190 J0.1841
G02 X29.4210 Y21.4836 I-0.7779 J0.7779
G02 X29.0000 Y21.3999 I-0.4210 J1.0164
G02 X28.5790 Y21.4836 I0.0000 J1.1001
G02 X28.2221 Y21.7221 I0.4210 J1.0164
G02 X27.9836 Y22.0790 I0.7779 J0.7779
G02 X27.8999 Y22.5000 I1.0164 J0.4210
G02 X27.9836 Y22.9210 I1.1001 J0.0000
G02 X28.2221 Y23.2779 I1.0164 J-0.4210
G02 X28.5790 Y23.5164 I0.7779 J-0.7779
G02 X29.0000 Y23.6001 I0.4210 J-1.0164
G02 X29.4210 Y23.5164 I0.0000 J-1.1001
G02 X29.7779 Y23.2779 I-0.4210 J-1.0164
G02 X30.0164 Y22.9210 I-0.7779 J-0.7779
G02 X30.1001 Y22.5000 I-1.0164 J-0.4210
G02 X28.4499 Y21.5473 I-1.1001 J0.0000
G02 Y23.4527 I0.5501 J0.9527
G02 X30.1001 Y22.5000 I0.5501 J-0.9527
G00 Z5.0000


(Nr. 15: Ausschnitt 2)
G00 X28.9930 Y16.3830 Z5.0000
G00 Z0.5000
G01 Z-1.0000 F900
G01 X28.7000 Y16.0898 F1200
G01 Y6.9098
G01 X28.9929 Y6.6169
G01 X28.7000 Y6.9098
G01 X6.3000 Y6.9102
G01 X6.0070 Y6.6170
G01 X6.3000 Y6.9102
G01 Y16.0902
G01 X6.0071 Y16.3831
G01 X6.3000 Y16.0902
G01 X28.7000 Y16.0898
G01 X28.9930 Y16.3830
G01 Z-2.0000 F900
G01 X28.7000 Y16.0898 F1200
G01 Y6.9098
G01 X28.9929 Y6.6169
G01 X28.7000 Y6.9098
G01 X6.3000 Y6.9102
G01 X6.0070 Y6.6170
G01 X6.3000 Y6.9102
G01 Y16.0902
G01 X6.0071 Y16.3831
G01 X6.3000 Y16.0902
G01 X28.7000 Y16.0898
G01 X28.9930 Y16.3830
G01 Z-3.0000 F900
G01 X28.7000 Y16.0898 F1200
G01 Y6.9098
G01 X28.9929 Y6.6169
G01 X28.7000 Y6.9098
G01 X6.3000 Y6.9102
G01 X6.0070 Y6.6170
G01 X6.3000 Y6.9102
G01 Y16.0902
G01 X6.0071 Y16.3831
G01 X6.3000 Y16.0902
G01 X28.7000 Y16.0898
G01 X28.9930 Y16.3830
G01 Z-4.0000 F900
G01 X28.7000 Y16.0898 F1200
G01 Y6.9098
G01 X28.9929 Y6.6169
G01 X28.7000 Y6.9098
G01 X6.3000 Y6.9102
G01 X6.0070 Y6.6170
G01 X6.3000 Y6.9102
G01 Y16.0902
G01 X6.0071 Y16.3831
G01 X6.3000 Y16.0902
G01 X28.7000 Y16.0898
G01 X28.9930 Y16.3830
G01 Z-5.0000 F900
G01 X28.7000 Y16.0898 F1200
G01 Y6.9098
G01 X28.9929 Y6.6169
G01 X28.7000 Y6.9098
G01 X6.3000 Y6.9102
G01 X6.0070 Y6.6170
G01 X6.3000 Y6.9102
G01 Y16.0902
G01 X6.0071 Y16.3831
G01 X6.3000 Y16.0902
G01 X28.7000 Y16.0898
G01 X28.9930 Y16.3830
G01 Z-5.5000 F900
G01 X28.7000 Y16.0898 F1200
G01 Y6.9098
G01 X28.9929 Y6.6169
G01 X28.7000 Y6.9098
G01 X6.3000 Y6.9102
G01 X6.0070 Y6.6170
G01 X6.3000 Y6.9102
G01 Y16.0902
G01 X6.0071 Y16.3831
G01 X6.3000 Y16.0902
G01 X28.7000 Y16.0898
G01 X28.9930 Y16.3830
G00 Z5.0000


(Nr. 16: Ausschnitt 1)
G00 X28.9929 Y51.6169 Z5.0000
G00 Z0.5000
G01 Z-1.0000 F900
G01 X28.7000 Y51.9098 F1200
G01 X6.3000 Y51.9102
G01 X6.0070 Y51.6170
G01 X6.3000 Y51.9102
G01 Y61.0902
G01 X6.0071 Y61.3831
G01 X6.3000 Y61.0902
G01 X28.7000 Y61.0898
G01 X28.9930 Y61.3830
G01 X28.7000 Y61.0898
G01 Y51.9098
G01 X28.9929 Y51.6169
G01 Z-2.0000 F900
G01 X28.7000 Y51.9098 F1200
G01 X6.3000 Y51.9102
G01 X6.0070 Y51.6170
G01 X6.3000 Y51.9102
G01 Y61.0902
G01 X6.0071 Y61.3831
G01 X6.3000 Y61.0902
G01 X28.7000 Y61.0898
G01 X28.9930 Y61.3830
G01 X28.7000 Y61.0898
G01 Y51.9098
G01 X28.9929 Y51.6169
G01 Z-3.0000 F900
G01 X28.7000 Y51.9098 F1200
G01 X6.3000 Y51.9102
G01 X6.0070 Y51.6170
G01 X6.3000 Y51.9102
G01 Y61.0902
G01 X6.0071 Y61.3831
G01 X6.3000 Y61.0902
G01 X28.7000 Y61.0898
G01 X28.9930 Y61.3830
G01 X28.7000 Y61.0898
G01 Y51.9098
G01 X28.9929 Y51.6169
G01 Z-4.0000 F900
G01 X28.7000 Y51.9098 F1200
G01 X6.3000 Y51.9102
G01 X6.0070 Y51.6170
G01 X6.3000 Y51.9102
G01 Y61.0902
G01 X6.0071 Y61.3831
G01 X6.3000 Y61.0902
G01 X28.7000 Y61.0898
G01 X28.9930 Y61.3830
G01 X28.7000 Y61.0898
G01 Y51.9098
G01 X28.9929 Y51.6169
G01 Z-5.0000 F900
G01 X28.7000 Y51.9098 F1200
G01 X6.3000 Y51.9102
G01 X6.0070 Y51.6170
G01 X6.3000 Y51.9102
G01 Y61.0902
G01 X6.0071 Y61.3831
G01 X6.3000 Y61.0902
G01 X28.7000 Y61.0898
G01 X28.9930 Y61.3830
G01 X28.7000 Y61.0898
G01 Y51.9098
G01 X28.9929 Y51.6169
G01 Z-5.5000 F900
G01 X28.7000 Y51.9098 F1200
G01 X6.3000 Y51.9102
G01 X6.0070 Y51.6170
G01 X6.3000 Y51.9102
G01 Y61.0902
G01 X6.0071 Y61.3831
G01 X6.3000 Y61.0902
G01 X28.7000 Y61.0898
G01 X28.9930 Y61.3830
G01 X28.7000 Y61.0898
G01 Y51.9098
G01 X28.9929 Y51.6169
G00 Z5.0000


(Nr. 17: Teil 1)
G00 X7.4361 Y68.9957 Z5.0000
G00 Z0.5000
G01 Z-1.0000 F900
G01 X3.7758 Y68.9950 F1200
G01 X3.3976 Y68.9639
G01 X2.9049 Y68.8793
G03 X0.1756 Y67.2210 I1.0957 J-4.8783
G03 X-0.9243 Y64.8696 I3.8072 J-3.2139
G01 X-0.9861 Y64.3740
G01 X-1.0000 Y64.0064
G01 Y58.0100
G01 Y55.0100
G01 Y35.6024
G01 Y32.6024
G01 Y13.0582
G01 Y10.0582
G01 Y3.9883
G01 X-0.9773 Y3.5217
G03 X0.1627 Y0.7944 I4.9655 J0.4735
G03 X3.0075 Y-0.9011 I3.8353 J3.2007
G01 X3.5017 Y-0.9753
G01 X3.9936 Y-1.0000
G01 X7.5668
G01 X10.5668
G01 X23.5380
G01 X26.5380
G01 X31.0117
G01 X31.4783 Y-0.9773
G01 X32.0951 Y-0.8793
G03 X34.8244 Y0.7790 I-1.0975 J4.8813
G03 X35.9614 Y3.3776 I-3.8074 J3.2140
G01 X36.0000 Y3.9936
G01 Y9.4186
G01 Y12.4186
G01 Y32.8601
G01 Y35.8601
G01 Y55.5323
G01 Y58.5323
G01 Y64.0117
G01 X35.9773 Y64.4783
G03 X34.7561 Y67.3004 I-4.9647 J-0.4731
G03 X32.2364 Y68.8455 I-3.7556 J-3.2973
G03 X31.0064 Y69.0000 I-1.2358 J-4.8654
G01 X26.5231 Y68.9992
G01 X23.5231 Y68.9986
G01 X10.4361 Y68.9962
G01 X7.4361 Y68.9957
G01 Z-2.0000 F900
G01 X3.7758 Y68.9950 F1200
G01 X3.3976 Y68.9639
G01 X2.9049 Y68.8793
G03 X0.1756 Y67.2210 I1.0957 J-4.8783
G03 X-0.9243 Y64.8696 I3.8072 J-3.2139
G01 X-0.9861 Y64.3740
G01 X-1.0000 Y64.0064
G01 Y58.0100
G01 Y55.0100
G01 Y35.6024
G01 Y32.6024
G01 Y13.0582
G01 Y10.0582
G01 Y3.9883
G01 X-0.9773 Y3.5217
G03 X0.1627 Y0.7944 I4.9655 J0.4735
G03 X3.0075 Y-0.9011 I3.8353 J3.2007
G01 X3.5017 Y-0.9753
G01 X3.9936 Y-1.0000
G01 X7.5668
G01 X10.5668
G01 X23.5380
G01 X26.5380
G01 X31.0117
G01 X31.4783 Y-0.9773
G01 X32.0951 Y-0.8793
G03 X34.8244 Y0.7790 I-1.0975 J4.8813
G03 X35.9614 Y3.3776 I-3.8074 J3.2140
G01 X36.0000 Y3.9936
G01 Y9.4186
G01 Y12.4186
G01 Y32.8601
G01 Y35.8601
G01 Y55.5323
G01 Y58.5323
G01 Y64.0117
G01 X35.9773 Y64.4783
G03 X34.7561 Y67.3004 I-4.9647 J-0.4731
G03 X32.2364 Y68.8455 I-3.7556 J-3.2973
G03 X31.0064 Y69.0000 I-1.2358 J-4.8654
G01 X26.5231 Y68.9992
G01 X23.5231 Y68.9986
G01 X10.4361 Y68.9962
G01 X7.4361 Y68.9957
G01 Z-3.0000 F900
G01 X3.7758 Y68.9950 F1200
G01 X3.3976 Y68.9639
G01 X2.9049 Y68.8793
G03 X0.1756 Y67.2210 I1.0957 J-4.8783
G03 X-0.9243 Y64.8696 I3.8072 J-3.2139
G01 X-0.9861 Y64.3740
G01 X-1.0000 Y64.0064
G01 Y58.0100
G01 Y55.0100
G01 Y35.6024
G01 Y32.6024
G01 Y13.0582
G01 Y10.0582
G01 Y3.9883
G01 X-0.9773 Y3.5217
G03 X0.1627 Y0.7944 I4.9655 J0.4735
G03 X3.0075 Y-0.9011 I3.8353 J3.2007
G01 X3.5017 Y-0.9753
G01 X3.9936 Y-1.0000
G01 X7.5668
G01 X10.5668
G01 X23.5380
G01 X26.5380
G01 X31.0117
G01 X31.4783 Y-0.9773
G01 X32.0951 Y-0.8793
G03 X34.8244 Y0.7790 I-1.0975 J4.8813
G03 X35.9614 Y3.3776 I-3.8074 J3.2140
G01 X36.0000 Y3.9936
G01 Y9.4186
G01 Y12.4186
G01 Y32.8601
G01 Y35.8601
G01 Y55.5323
G01 Y58.5323
G01 Y64.0117
G01 X35.9773 Y64.4783
G03 X34.7561 Y67.3004 I-4.9647 J-0.4731
G03 X32.2364 Y68.8455 I-3.7556 J-3.2973
G03 X31.0064 Y69.0000 I-1.2358 J-4.8654
G01 X26.5231 Y68.9992
G01 X23.5231 Y68.9986
G01 X10.4361 Y68.9962
G01 X7.4361 Y68.9957
G01 Z-4.0000 F900
G01 X3.7758 Y68.9950 F1200
G01 X3.3976 Y68.9639
G01 X2.9049 Y68.8793
G03 X0.1756 Y67.2210 I1.0957 J-4.8783
G03 X-0.9243 Y64.8696 I3.8072 J-3.2139
G01 X-0.9861 Y64.3740
G01 X-1.0000 Y64.0064
G01 Y58.0100
G01 Y55.0100
G01 Y35.6024
G01 Y32.6024
G01 Y13.0582
G01 Y10.0582
G01 Y3.9883
G01 X-0.9773 Y3.5217
G03 X0.1627 Y0.7944 I4.9655 J0.4735
G03 X3.0075 Y-0.9011 I3.8353 J3.2007
G01 X3.5017 Y-0.9753
G01 X3.9936 Y-1.0000
G01 X7.5668
G01 X10.5668
G01 X23.5380
G01 X26.5380
G01 X31.0117
G01 X31.4783 Y-0.9773
G01 X32.0951 Y-0.8793
G03 X34.8244 Y0.7790 I-1.0975 J4.8813
G03 X35.9614 Y3.3776 I-3.8074 J3.2140
G01 X36.0000 Y3.9936
G01 Y9.4186
G01 Y12.4186
G01 Y32.8601
G01 Y35.8601
G01 Y55.5323
G01 Y58.5323
G01 Y64.0117
G01 X35.9773 Y64.4783
G03 X34.7561 Y67.3004 I-4.9647 J-0.4731
G03 X32.2364 Y68.8455 I-3.7556 J-3.2973
G03 X31.0064 Y69.0000 I-1.2358 J-4.8654
G01 X26.5231 Y68.9992
G01 X23.5231 Y68.9986
G01 X10.4361 Y68.9962
G01 X7.4361 Y68.9957
G01 Z-5.0000 F900
G01 X3.7758 Y68.9950 F1200
G01 X3.3976 Y68.9639
G01 X2.9049 Y68.8793
G03 X0.1756 Y67.2210 I1.0957 J-4.8783
G03 X-0.9243 Y64.8696 I3.8072 J-3.2139
G01 X-0.9861 Y64.3740
G01 X-1.0000 Y64.0064
G01 Y58.0100
G00 Z-4.0000
G01 Y55.0100
G01 Z-5.0000 F900
G01 Y35.6024 F1200
G00 Z-4.0000
G01 Y32.6024
G01 Z-5.0000 F900
G01 Y13.0582 F1200
G00 Z-4.0000
G01 Y10.0582
G01 Z-5.0000 F900
G01 Y3.9883 F1200
G01 X-0.9773 Y3.5217
G03 X0.1627 Y0.7944 I4.9655 J0.4735
G03 X3.0075 Y-0.9011 I3.8353 J3.2007
G01 X3.5017 Y-0.9753
G01 X3.9936 Y-1.0000
G01 X7.5668
G00 Z-4.0000
G01 X10.5668
G01 Z-5.0000 F900
G01 X23.5380 F1200
G00 Z-4.0000
G01 X26.5380
G01 Z-5.0000 F900
G01 X31.0117 F1200
G01 X31.4783 Y-0.9773
G01 X32.0951 Y-0.8793
G03 X34.8244 Y0.7790 I-1.0975 J4.8813
G03 X35.9614 Y3.3776 I-3.8074 J3.2140
G01 X36.0000 Y3.9936
G01 Y9.4186
G00 Z-4.0000
G01 Y12.4186
G01 Z-5.0000 F900
G01 Y32.8601 F1200
G00 Z-4.0000
G01 Y35.8601
G01 Z-5.0000 F900
G01 Y55.5323 F1200
G00 Z-4.0000
G01 Y58.5323
G01 Z-5.0000 F900
G01 Y64.0117 F1200
G01 X35.9773 Y64.4783
G03 X34.7561 Y67.3004 I-4.9647 J-0.4731
G03 X32.2364 Y68.8455 I-3.7556 J-3.2973
G03 X31.0064 Y69.0000 I-1.2358 J-4.8654
G01 X26.5231 Y68.9992
G00 Z-4.0000
G01 X23.5231 Y68.9986
G01 Z-5.0000 F900
G01 X10.4361 Y68.9962 F1200
G00 Z-4.0000
G01 X7.4361 Y68.9957
G00 Z-4.5000
G01 Z-5.5000 F900
G01 X3.7758 Y68.9950 F1200
G01 X3.3976 Y68.9639
G01 X2.9049 Y68.8793
G03 X0.1756 Y67.2210 I1.0957 J-4.8783
G03 X-0.9243 Y64.8696 I3.8072 J-3.2139
G01 X-0.9861 Y64.3740
G01 X-1.0000 Y64.0064
G01 Y58.0100
G00 Z-4.0000
G01 Y55.0100
G00 Z-4.5000
G01 Z-5.5000 F900
G01 Y35.6024 F1200
G00 Z-4.0000
G01 Y32.6024
G00 Z-4.5000
G01 Z-5.5000 F900
G01 Y13.0582 F1200
G00 Z-4.0000
G01 Y10.0582
G00 Z-4.5000
G01 Z-5.5000 F900
G01 Y3.9883 F1200
G01 X-0.9773 Y3.5217
G03 X0.1627 Y0.7944 I4.9655 J0.4735
G03 X3.0075 Y-0.9011 I3.8353 J3.2007
G01 X3.5017 Y-0.9753
G01 X3.9936 Y-1.0000
G01 X7.5668
G00 Z-4.0000
G01 X10.5668
G00 Z-4.5000
G01 Z-5.5000 F900
G01 X23.5380 F1200
G00 Z-4.0000
G01 X26.5380
G00 Z-4.5000
G01 Z-5.5000 F900
G01 X31.0117 F1200
G01 X31.4783 Y-0.9773
G01 X32.0951 Y-0.8793
G03 X34.8244 Y0.7790 I-1.0975 J4.8813
G03 X35.9614 Y3.3776 I-3.8074 J3.2140
G01 X36.0000 Y3.9936
G01 Y9.4186
G00 Z-4.0000
G01 Y12.4186
G00 Z-4.5000
G01 Z-5.5000 F900
G01 Y32.8601 F1200
G00 Z-4.0000
G01 Y35.8601
G00 Z-4.5000
G01 Z-5.5000 F900
G01 Y55.5323 F1200
G00 Z-4.0000
G01 Y58.5323
G00 Z-4.5000
G01 Z-5.5000 F900
G01 Y64.0117 F1200
G01 X35.9773 Y64.4783
G03 X34.7561 Y67.3004 I-4.9647 J-0.4731
G03 X32.2364 Y68.8455 I-3.7556 J-3.2973
G03 X31.0064 Y69.0000 I-1.2358 J-4.8654
G01 X26.5231 Y68.9992
G00 Z-4.0000
G01 X23.5231 Y68.9986
G00 Z-4.5000
G01 Z-5.5000 F900
G01 X10.4361 Y68.9962 F1200
G00 Z-4.0000
G01 X7.4361 Y68.9957
G00 Z5.0000


(Nr. 18: Tasche raeumen: Ausschnitt 7)
G00 X53.1093 Y46.4000 Z5.0000
G00 Z0.5000
G01 Z-1.0000 F900
G01 X48.8869 F1200
G01 X48.8861 Y44.6000
G01 X53.1131
G00 Z5.0000
G00 X53.1093 Y46.4000
G00 Z-0.5000
G01 Z-2.0000 F900
G01 X48.8869 F1200
G01 X48.8861 Y44.6000
G01 X53.1131
G00 Z5.0000
G00 X53.1093 Y46.4000
G00 Z-1.5000
G01 Z-2.5000 F900
G01 X48.8869 F1200
G01 X48.8861 Y44.6000
G01 X53.1131
G00 Z5.0000


(Nr. 19: Tasche Seitenwand: Ausschnitt 7)
G00 X51.0008 Y42.9997 Z5.0000
G00 Z0.5000
G01 Z-1.0000 F900
G02 X48.5006 Y45.5000 I0.0000 J2.5003 F1200
G02 X51.0008 Y48.0002 I2.5003 J0.0000
G02 X53.5011 Y45.5000 I0.0000 J-2.5003
G02 X51.0008 Y42.9997 I-2.5003 J0.0000
G01 Z-2.0000 F900
G02 X48.5006 Y45.5000 I0.0000 J2.5003 F1200
G02 X51.0008 Y48.0002 I2.5003 J0.0000
G02 X53.5011 Y45.5000 I0.0000 J-2.5003
G02 X51.0008 Y42.9997 I-2.5003 J0.0000
G01 Z-2.5000 F900
G02 X48.5006 Y45.5000 I0.0000 J2.5003 F1200
G02 X51.0008 Y48.0002 I2.5003 J0.0000
G02 X53.5011 Y45.5000 I0.0000 J-2.5003
G02 X51.0008 Y42.9997 I-2.5003 J0.0000
G00 Z5.0000


(Nr. 20: Tasche raeumen: Ausschnitt 8)
G00 X76.1128 Y44.6000 Z5.0000
G00 Z0.5000
G01 Z-1.0000 F900
G01 X71.8891 F1200
G01 X71.8832 Y46.4000
G01 X76.1131
G00 Z5.0000
G00 X76.1128 Y44.6000
G00 Z-0.5000
G01 Z-2.0000 F900
G01 X71.8891 F1200
G01 X71.8832 Y46.4000
G01 X76.1131
G00 Z5.0000
G00 X76.1128 Y44.6000
G00 Z-1.5000
G01 Z-2.5000 F900
G01 X71.8891 F1200
G01 X71.8832 Y46.4000
G01 X76.1131
G00 Z5.0000


(Nr. 21: Tasche Seitenwand: Ausschnitt 8)
G00 X74.0043 Y43.0022 Z5.0000
G00 Z0.5000
G01 Z-1.0000 F900
G02 X71.5066 Y45.4999 I0.0000 J2.4977 F1200
G02 X74.0043 Y47.9976 I2.4977 J0.0000
G02 X76.5020 Y45.4999 I0.0000 J-2.4977
G02 X74.0043 Y43.0022 I-2.4977 J0.0000
G01 Z-2.0000 F900
G02 X71.5066 Y45.4999 I0.0000 J2.4977 F1200
G02 X74.0043 Y47.9976 I2.4977 J0.0000
G02 X76.5020 Y45.4999 I0.0000 J-2.4977
G02 X74.0043 Y43.0022 I-2.4977 J0.0000
G01 Z-2.5000 F900
G02 X71.5066 Y45.4999 I0.0000 J2.4977 F1200
G02 X74.0043 Y47.9976 I2.4977 J0.0000
G02 X76.5020 Y45.4999 I0.0000 J-2.4977
G02 X74.0043 Y43.0022 I-2.4977 J0.0000
G00 Z5.0000


(Nr. 22: Tasche raeumen: Ausschnitt 10)
G00 X56.7139 Y29.5500 Z5.0000
G00 Z0.5000
G01 Z-1.0000 F900
G01 X54.2804 F1200
G01 X54.0610 Y29.3945
G01 X53.7694 Y29.1151
G01 X52.5649 Y27.7500
G01 X57.7936
G02 X57.1114 Y25.9500 I-2.3385 J-0.1430
G01 X50.9766
G01 X49.3883 Y24.1500
G01 X55.5191
G01 X53.9269 Y22.3500
G01 X48.7102
G03 X49.7893 Y20.5500 I2.2482 J0.1244
G01 X52.2165
G00 Z5.0000
G00 X56.7139 Y29.5500
G00 Z-0.5000
G01 Z-2.0000 F900
G01 X54.2804 F1200
G01 X54.0610 Y29.3945
G01 X53.7694 Y29.1151
G01 X52.5649 Y27.7500
G01 X57.7936
G02 X57.1114 Y25.9500 I-2.3385 J-0.1430
G01 X50.9766
G01 X49.3883 Y24.1500
G01 X55.5191
G01 X53.9269 Y22.3500
G01 X48.7102
G03 X49.7893 Y20.5500 I2.2482 J0.1244
G01 X52.2165
G00 Z5.0000
G00 X56.7139 Y29.5500
G00 Z-1.5000
G01 Z-2.5000 F900
G01 X54.2804 F1200
G01 X54.0610 Y29.3945
G01 X53.7694 Y29.1151
G01 X52.5649 Y27.7500
G01 X57.7936
G02 X57.1114 Y25.9500 I-2.3385 J-0.1430
G01 X50.9766
G01 X49.3883 Y24.1500
G01 X55.5191
G01 X53.9269 Y22.3500
G01 X48.7102
G03 X49.7893 Y20.5500 I2.2482 J0.1244
G01 X52.2165
G00 Z5.0000


(Nr. 23: Tasche Seitenwand: Ausschnitt 10)
G00 X56.5596 Y29.8648 Z5.0000
G00 Z0.5000
G01 Z-1.0000 F900
G02 X57.6660 Y26.3508 I-1.0604 J-2.2651 F1200
G01 X57.5094 Y26.1125
G01 X57.3605 Y25.9298
G01 X52.7257 Y20.6913
G02 X50.9937 Y20.0004 I-1.7243 J1.8064
G02 X48.8340 Y23.7493 I0.0051 J2.4995
G01 X48.9906 Y23.9876
G01 X49.1442 Y24.1763
G01 X53.6204 Y29.2485
G01 X53.9356 Y29.5504
G02 X56.5596 Y29.8648 I1.5650 J-1.9541
G01 Z-2.0000 F900
G02 X57.6660 Y26.3508 I-1.0604 J-2.2651 F1200
G01 X57.5094 Y26.1125
G01 X57.3605 Y25.9298
G01 X52.7257 Y20.6913
G02 X50.9937 Y20.0004 I-1.7243 J1.8064
G02 X48.8340 Y23.7493 I0.0051 J2.4995
G01 X48.9906 Y23.9876
G01 X49.1442 Y24.1763
G01 X53.6204 Y29.2485
G01 X53.9356 Y29.5504
G02 X56.5596 Y29.8648 I1.5650 J-1.9541
G01 Z-2.5000 F900
G02 X57.6660 Y26.3508 I-1.0604 J-2.2651 F1200
G01 X57.5094 Y26.1125
G01 X57.3605 Y25.9298
G01 X52.7257 Y20.6913
G02 X50.9937 Y20.0004 I-1.7243 J1.8064
G02 X48.8340 Y23.7493 I0.0051 J2.4995
G01 X48.9906 Y23.9876
G01 X49.1442 Y24.1763
G01 X53.6204 Y29.2485
G01 X53.9356 Y29.5504
G02 X56.5596 Y29.8648 I1.5650 J-1.9541
G00 Z5.0000


(Nr. 24: Tasche raeumen: Ausschnitt 9)
G00 X72.4367 Y27.7498 Z5.0000
G00 Z0.5000
G01 Z-1.0000 F900
G01 X67.2082 F1200
G02 X68.2947 Y29.5498 I2.2323 J-0.1195
G01 X70.7135
G00 Z5.0000
G00 X67.8903 Y27.7498
G00 Z0.5000
G01 Z-1.0000
G01 Y25.9498
G01 X74.0237
G01 X75.6107 Y24.1498
G01 X69.4801
G01 X71.0699 Y22.3498
G01 X76.2937
G02 X75.2151 Y20.5498 I-2.2746 J0.1399
G01 X72.7841
G00 Z5.0000
G00 X72.4367 Y27.7498
G00 Z-0.5000
G01 Z-2.0000 F900
G01 X67.2082 F1200
G02 X68.2947 Y29.5498 I2.2323 J-0.1195
G01 X70.7135
G00 Z5.0000
G00 X67.8903 Y27.7498
G00 Z-0.5000
G01 Z-2.0000
G01 Y25.9498
G01 X74.0237
G01 X75.6107 Y24.1498
G01 X69.4801
G01 X71.0699 Y22.3498
G01 X76.2937
G02 X75.2151 Y20.5498 I-2.2746 J0.1399
G01 X72.7841
G00 Z5.0000
G00 X72.4367 Y27.7498
G00 Z-1.5000
G01 Z-2.5000 F900
G01 X67.2082 F1200
G02 X68.2947 Y29.5498 I2.2323 J-0.1195
G01 X70.7135
G00 Z5.0000
G00 X67.8903 Y27.7498
G00 Z-1.5000
G01 Z-2.5000
G01 Y25.9498
G01 X74.0237
G01 X75.6107 Y24.1498
G01 X69.4801
G01 X71.0699 Y22.3498
G01 X76.2937
G02 X75.2151 Y20.5498 I-2.2746 J0.1399
G01 X72.7841
G00 Z5.0000


(Nr. 25: Tasche Seitenwand: Ausschnitt 9)
G00 X67.0878 Y26.9421 Z5.0000
G00 Z0.5000
G01 Z-1.0000 F900
G02 X71.4298 Y29.1947 I2.4147 J0.6566 F1200
G01 X75.9211 Y24.1001
G02 X76.4125 Y23.1579 I-1.9081 J-1.5946
G02 X73.9994 Y20.0004 I-2.4116 J-0.6578
G02 X72.2112 Y20.7541 I-0.0022 J2.4931
G01 X67.5792 Y26.0000
G02 X67.0878 Y26.9421 I1.9081 J1.5946
G01 Z-2.0000 F900
G02 X71.4298 Y29.1947 I2.4147 J0.6566 F1200
G01 X75.9211 Y24.1001
G02 X76.4125 Y23.1579 I-1.9081 J-1.5946
G02 X73.9994 Y20.0004 I-2.4116 J-0.6578
G02 X72.2112 Y20.7541 I-0.0022 J2.4931
G01 X67.5792 Y26.0000
G02 X67.0878 Y26.9421 I1.9081 J1.5946
G01 Z-2.5000 F900
G02 X71.4298 Y29.1947 I2.4147 J0.6566 F1200
G01 X75.9211 Y24.1001
G02 X76.4125 Y23.1579 I-1.9081 J-1.5946
G02 X73.9994 Y20.0004 I-2.4116 J-0.6578
G02 X72.2112 Y20.7541 I-0.0022 J2.4931
G01 X67.5792 Y26.0000
G02 X67.0878 Y26.9421 I1.9081 J1.5946
G00 Z5.0000


(Nr. 26: Kreistasche 7)
G00 X51.8999 Y45.4999 Z5.0000
G00 Z0.5000
G02 X50.5499 Y44.7205 Z0.3333 I-0.9000 J0.0000 F900
G02 Y46.2793 Z0.1667 I0.4500 J0.7794
G02 X51.8999 Y45.4999 Z0.0000 I0.4500 J-0.7794
G02 X50.5499 Y44.7205 I-0.9000 J0.0000
G02 Y46.2793 I0.4500 J0.7794
G02 X51.8999 Y45.4999 I0.4500 J-0.7794
G02 X50.5499 Y44.7205 Z-0.3333 I-0.9000 J0.0000
G02 Y46.2793 Z-0.6667 I0.4500 J0.7794
G02 X51.8999 Y45.4999 Z-1.0000 I0.4500 J-0.7794
G02 X50.5499 Y44.7205 I-0.9000 J0.0000
G02 Y46.2793 I0.4500 J0.7794
G02 X51.8999 Y45.4999 I0.4500 J-0.7794
G02 X51.9354 Y45.1124 I-0.8803 J-0.2758 F1200
G02 X51.7778 Y44.7220 I-1.0190 J0.1842
G02 X51.4209 Y44.4835 I-0.7779 J0.7779
G02 X50.9999 Y44.3998 I-0.4210 J1.0164
G02 X50.5789 Y44.4835 I0.0000 J1.1001
G02 X50.2220 Y44.7220 I0.4210 J1.0164
G02 X49.9836 Y45.0789 I0.7779 J0.7779
G02 X49.8998 Y45.4999 I1.0164 J0.4210
G02 X49.9836 Y45.9209 I1.1001 J0.0000
G02 X50.2220 Y46.2778 I1.0164 J-0.4210
G02 X50.5789 Y46.5163 I0.7779 J-0.7779
G02 X50.9999 Y46.6000 I0.4210 J-1.0164
G02 X51.4209 Y46.5163 I0.0000 J-1.1001
G02 X51.7778 Y46.2778 I-0.4210 J-1.0164
G02 X52.0163 Y45.9209 I-0.7779 J-0.7779
G02 X52.1000 Y45.4999 I-1.0164 J-0.4210
G02 X50.4499 Y44.5472 I-1.1001 J0.0000
G02 Y46.4526 I0.5501 J0.9527
G02 X52.1000 Y45.4999 I0.5501 J-0.9527
G00 X51.8999
G02 X50.5499 Y44.7205 Z-1.3333 I-0.9000 J0.0000 F900
G02 Y46.2793 Z-1.6667 I0.4500 J0.7794
G02 X51.8999 Y45.4999 Z-2.0000 I0.4500 J-0.7794
G02 X50.5499 Y44.7205 I-0.9000 J0.0000
G02 Y46.2793 I0.4500 J0.7794
G02 X51.8999 Y45.4999 I0.4500 J-0.7794
G02 X51.9354 Y45.1124 I-0.8803 J-0.2758 F1200
G02 X51.7778 Y44.7220 I-1.0190 J0.1842
G02 X51.4209 Y44.4835 I-0.7779 J0.7779
G02 X50.9999 Y44.3998 I-0.4210 J1.0164
G02 X50.5789 Y44.4835 I0.0000 J1.1001
G02 X50.2220 Y44.7220 I0.4210 J1.0164
G02 X49.9836 Y45.0789 I0.7779 J0.7779
G02 X49.8998 Y45.4999 I1.0164 J0.4210
G02 X49.9836 Y45.9209 I1.1001 J0.0000
G02 X50.2220 Y46.2778 I1.0164 J-0.4210
G02 X50.5789 Y46.5163 I0.7779 J-0.7779
G02 X50.9999 Y46.6000 I0.4210 J-1.0164
G02 X51.4209 Y46.5163 I0.0000 J-1.1001
G02 X51.7778 Y46.2778 I-0.4210 J-1.0164
G02 X52.0163 Y45.9209 I-0.7779 J-0.7779
G02 X52.1000 Y45.4999 I-1.0164 J-0.4210
G02 X50.4499 Y44.5472 I-1.1001 J0.0000
G02 Y46.4526 I0.5501 J0.9527
G02 X52.1000 Y45.4999 I0.5501 J-0.9527
G00 X51.8999
G02 X50.5499 Y44.7205 Z-2.3333 I-0.9000 J0.0000 F900
G02 Y46.2793 Z-2.6667 I0.4500 J0.7794
G02 X51.8999 Y45.4999 Z-3.0000 I0.4500 J-0.7794
G02 X50.5499 Y44.7205 I-0.9000 J0.0000
G02 Y46.2793 I0.4500 J0.7794
G02 X51.8999 Y45.4999 I0.4500 J-0.7794
G02 X51.9354 Y45.1124 I-0.8803 J-0.2758 F1200
G02 X51.7778 Y44.7220 I-1.0190 J0.1842
G02 X51.4209 Y44.4835 I-0.7779 J0.7779
G02 X50.9999 Y44.3998 I-0.4210 J1.0164
G02 X50.5789 Y44.4835 I0.0000 J1.1001
G02 X50.2220 Y44.7220 I0.4210 J1.0164
G02 X49.9836 Y45.0789 I0.7779 J0.7779
G02 X49.8998 Y45.4999 I1.0164 J0.4210
G02 X49.9836 Y45.9209 I1.1001 J0.0000
G02 X50.2220 Y46.2778 I1.0164 J-0.4210
G02 X50.5789 Y46.5163 I0.7779 J-0.7779
G02 X50.9999 Y46.6000 I0.4210 J-1.0164
G02 X51.4209 Y46.5163 I0.0000 J-1.1001
G02 X51.7778 Y46.2778 I-0.4210 J-1.0164
G02 X52.0163 Y45.9209 I-0.7779 J-0.7779
G02 X52.1000 Y45.4999 I-1.0164 J-0.4210
G02 X50.4499 Y44.5472 I-1.1001 J0.0000
G02 Y46.4526 I0.5501 J0.9527
G02 X52.1000 Y45.4999 I0.5501 J-0.9527
G00 X51.8999
G02 X50.5499 Y44.7205 Z-3.3333 I-0.9000 J0.0000 F900
G02 Y46.2793 Z-3.6667 I0.4500 J0.7794
G02 X51.8999 Y45.4999 Z-4.0000 I0.4500 J-0.7794
G02 X50.5499 Y44.7205 I-0.9000 J0.0000
G02 Y46.2793 I0.4500 J0.7794
G02 X51.8999 Y45.4999 I0.4500 J-0.7794
G02 X51.9354 Y45.1124 I-0.8803 J-0.2758 F1200
G02 X51.7778 Y44.7220 I-1.0190 J0.1842
G02 X51.4209 Y44.4835 I-0.7779 J0.7779
G02 X50.9999 Y44.3998 I-0.4210 J1.0164
G02 X50.5789 Y44.4835 I0.0000 J1.1001
G02 X50.2220 Y44.7220 I0.4210 J1.0164
G02 X49.9836 Y45.0789 I0.7779 J0.7779
G02 X49.8998 Y45.4999 I1.0164 J0.4210
G02 X49.9836 Y45.9209 I1.1001 J0.0000
G02 X50.2220 Y46.2778 I1.0164 J-0.4210
G02 X50.5789 Y46.5163 I0.7779 J-0.7779
G02 X50.9999 Y46.6000 I0.4210 J-1.0164
G02 X51.4209 Y46.5163 I0.0000 J-1.1001
G02 X51.7778 Y46.2778 I-0.4210 J-1.0164
G02 X52.0163 Y45.9209 I-0.7779 J-0.7779
G02 X52.1000 Y45.4999 I-1.0164 J-0.4210
G02 X50.4499 Y44.5472 I-1.1001 J0.0000
G02 Y46.4526 I0.5501 J0.9527
G02 X52.1000 Y45.4999 I0.5501 J-0.9527
G00 X51.8999
G02 X50.5499 Y44.7205 Z-4.3333 I-0.9000 J0.0000 F900
G02 Y46.2793 Z-4.6667 I0.4500 J0.7794
G02 X51.8999 Y45.4999 Z-5.0000 I0.4500 J-0.7794
G02 X50.5499 Y44.7205 I-0.9000 J0.0000
G02 Y46.2793 I0.4500 J0.7794
G02 X51.8999 Y45.4999 I0.4500 J-0.7794
G02 X51.9354 Y45.1124 I-0.8803 J-0.2758 F1200
G02 X51.7778 Y44.7220 I-1.0190 J0.1842
G02 X51.4209 Y44.4835 I-0.7779 J0.7779
G02 X50.9999 Y44.3998 I-0.4210 J1.0164
G02 X50.5789 Y44.4835 I0.0000 J1.1001
G02 X50.2220 Y44.7220 I0.4210 J1.0164
G02 X49.9836 Y45.0789 I0.7779 J0.7779
G02 X49.8998 Y45.4999 I1.0164 J0.4210
G02 X49.9836 Y45.9209 I1.1001 J0.0000
G02 X50.2220 Y46.2778 I1.0164 J-0.4210
G02 X50.5789 Y46.5163 I0.7779 J-0.7779
G02 X50.9999 Y46.6000 I0.4210 J-1.0164
G02 X51.4209 Y46.5163 I0.0000 J-1.1001
G02 X51.7778 Y46.2778 I-0.4210 J-1.0164
G02 X52.0163 Y45.9209 I-0.7779 J-0.7779
G02 X52.1000 Y45.4999 I-1.0164 J-0.4210
G02 X50.4499 Y44.5472 I-1.1001 J0.0000
G02 Y46.4526 I0.5501 J0.9527
G02 X52.1000 Y45.4999 I0.5501 J-0.9527
G00 X51.8999
G02 X50.5499 Y44.7205 Z-5.1667 I-0.9000 J0.0000 F900
G02 Y46.2793 Z-5.3333 I0.4500 J0.7794
G02 X51.8999 Y45.4999 Z-5.5000 I0.4500 J-0.7794
G02 X50.5499 Y44.7205 I-0.9000 J0.0000
G02 Y46.2793 I0.4500 J0.7794
G02 X51.8999 Y45.4999 I0.4500 J-0.7794
G02 X51.9354 Y45.1124 I-0.8803 J-0.2758 F1200
G02 X51.7778 Y44.7220 I-1.0190 J0.1842
G02 X51.4209 Y44.4835 I-0.7779 J0.7779
G02 X50.9999 Y44.3998 I-0.4210 J1.0164
G02 X50.5789 Y44.4835 I0.0000 J1.1001
G02 X50.2220 Y44.7220 I0.4210 J1.0164
G02 X49.9836 Y45.0789 I0.7779 J0.7779
G02 X49.8998 Y45.4999 I1.0164 J0.4210
G02 X49.9836 Y45.9209 I1.1001 J0.0000
G02 X50.2220 Y46.2778 I1.0164 J-0.4210
G02 X50.5789 Y46.5163 I0.7779 J-0.7779
G02 X50.9999 Y46.6000 I0.4210 J-1.0164
G02 X51.4209 Y46.5163 I0.0000 J-1.1001
G02 X51.7778 Y46.2778 I-0.4210 J-1.0164
G02 X52.0163 Y45.9209 I-0.7779 J-0.7779
G02 X52.1000 Y45.4999 I-1.0164 J-0.4210
G02 X50.4499 Y44.5472 I-1.1001 J0.0000
G02 Y46.4526 I0.5501 J0.9527
G02 X52.1000 Y45.4999 I0.5501 J-0.9527
G00 Z5.0000


(Nr. 27: Kreistasche 8)
G00 X74.8999 Y45.4998 Z5.0000
G00 Z0.5000
G02 X73.5499 Y44.7204 Z0.3333 I-0.9000 J0.0000 F900
G02 Y46.2793 Z0.1667 I0.4500 J0.7794
G02 X74.8999 Y45.4998 Z0.0000 I0.4500 J-0.7794
G02 X73.5499 Y44.7204 I-0.9000 J0.0000
G02 Y46.2793 I0.4500 J0.7794
G02 X74.8999 Y45.4998 I0.4500 J-0.7794
G02 X73.5499 Y44.7204 Z-0.3333 I-0.9000 J0.0000
G02 Y46.2793 Z-0.6667 I0.4500 J0.7794
G02 X74.8999 Y45.4998 Z-1.0000 I0.4500 J-0.7794
G02 X73.5499 Y44.7204 I-0.9000 J0.0000
G02 Y46.2793 I0.4500 J0.7794
G02 X74.8999 Y45.4998 I0.4500 J-0.7794
G02 X74.9353 Y45.1124 I-0.8803 J-0.2758 F1200
G02 X74.7778 Y44.7219 I-1.0190 J0.1840
G02 X74.4209 Y44.4834 I-0.7779 J0.7779
G02 X73.9999 Y44.3997 I-0.4210 J1.0164
G02 X73.5789 Y44.4834 I0.0000 J1.1002
G02 X73.2219 Y44.7219 I0.4210 J1.0164
G02 X72.9834 Y45.0788 I0.7779 J0.7779
G02 X72.8997 Y45.4998 I1.0164 J0.4210
G02 X72.9834 Y45.9209 I1.1002 J0.0000
G02 X73.2219 Y46.2778 I1.0164 J-0.4210
G02 X73.5789 Y46.5163 I0.7779 J-0.7779
G02 X73.9999 Y46.6000 I0.4210 J-1.0164
G02 X74.4209 Y46.5163 I0.0000 J-1.1002
G02 X74.7778 Y46.2778 I-0.4210 J-1.0164
G02 X75.0163 Y45.9209 I-0.7779 J-0.7779
G02 X75.1000 Y45.4998 I-1.0164 J-0.4210
G02 X73.4498 Y44.5471 I-1.1002 J0.0000
G02 Y46.4526 I0.5501 J0.9528
G02 X75.1000 Y45.4998 I0.5501 J-0.9528
G00 X74.8999
G02 X73.5499 Y44.7204 Z-1.3333 I-0.9000 J0.0000 F900
G02 Y46.2793 Z-1.6667 I0.4500 J0.7794
G02 X74.8999 Y45.4998 Z-2.0000 I0.4500 J-0.7794
G02 X73.5499 Y44.7204 I-0.9000 J0.0000
G02 Y46.2793 I0.4500 J0.7794
G02 X74.8999 Y45.4998 I0.4500 J-0.7794
G02 X74.9353 Y45.1124 I-0.8803 J-0.2758 F1200
G02 X74.7778 Y44.7219 I-1.0190 J0.1840
G02 X74.4209 Y44.4834 I-0.7779 J0.7779
G02 X73.9999 Y44.3997 I-0.4210 J1.0164
G02 X73.5789 Y44.4834 I0.0000 J1.1002
G02 X73.2219 Y44.7219 I0.4210 J1.0164
G02 X72.9834 Y45.0788 I0.7779 J0.7779
G02 X72.8997 Y45.4998 I1.0164 J0.4210
G02 X72.9834 Y45.9209 I1.1002 J0.0000
G02 X73.2219 Y46.2778 I1.0164 J-0.4210
G02 X73.5789 Y46.5163 I0.7779 J-0.7779
G02 X73.9999 Y46.6000 I0.4210 J-1.0164
G02 X74.4209 Y46.5163 I0.0000 J-1.1002
G02 X74.7778 Y46.2778 I-0.4210 J-1.0164
G02 X75.0163 Y45.9209 I-0.7779 J-0.7779
G02 X75.1000 Y45.4998 I-1.0164 J-0.4210
G02 X73.4498 Y44.5471 I-1.1002 J0.0000
G02 Y46.4526 I0.5501 J0.9528
G02 X75.1000 Y45.4998 I0.5501 J-0.9528
G00 X74.8999
G02 X73.5499 Y44.7204 Z-2.3333 I-0.9000 J0.0000 F900
G02 Y46.2793 Z-2.6667 I0.4500 J0.7794
G02 X74.8999 Y45.4998 Z-3.0000 I0.4500 J-0.7794
G02 X73.5499 Y44.7204 I-0.9000 J0.0000
G02 Y46.2793 I0.4500 J0.7794
G02 X74.8999 Y45.4998 I0.4500 J-0.7794
G02 X74.9353 Y45.1124 I-0.8803 J-0.2758 F1200
G02 X74.7778 Y44.7219 I-1.0190 J0.1840
G02 X74.4209 Y44.4834 I-0.7779 J0.7779
G02 X73.9999 Y44.3997 I-0.4210 J1.0164
G02 X73.5789 Y44.4834 I0.0000 J1.1002
G02 X73.2219 Y44.7219 I0.4210 J1.0164
G02 X72.9834 Y45.0788 I0.7779 J0.7779
G02 X72.8997 Y45.4998 I1.0164 J0.4210
G02 X72.9834 Y45.9209 I1.1002 J0.0000
G02 X73.2219 Y46.2778 I1.0164 J-0.4210
G02 X73.5789 Y46.5163 I0.7779 J-0.7779
G02 X73.9999 Y46.6000 I0.4210 J-1.0164
G02 X74.4209 Y46.5163 I0.0000 J-1.1002
G02 X74.7778 Y46.2778 I-0.4210 J-1.0164
G02 X75.0163 Y45.9209 I-0.7779 J-0.7779
G02 X75.1000 Y45.4998 I-1.0164 J-0.4210
G02 X73.4498 Y44.5471 I-1.1002 J0.0000
G02 Y46.4526 I0.5501 J0.9528
G02 X75.1000 Y45.4998 I0.5501 J-0.9528
G00 X74.8999
G02 X73.5499 Y44.7204 Z-3.3333 I-0.9000 J0.0000 F900
G02 Y46.2793 Z-3.6667 I0.4500 J0.7794
G02 X74.8999 Y45.4998 Z-4.0000 I0.4500 J-0.7794
G02 X73.5499 Y44.7204 I-0.9000 J0.0000
G02 Y46.2793 I0.4500 J0.7794
G02 X74.8999 Y45.4998 I0.4500 J-0.7794
G02 X74.9353 Y45.1124 I-0.8803 J-0.2758 F1200
G02 X74.7778 Y44.7219 I-1.0190 J0.1840
G02 X74.4209 Y44.4834 I-0.7779 J0.7779
G02 X73.9999 Y44.3997 I-0.4210 J1.0164
G02 X73.5789 Y44.4834 I0.0000 J1.1002
G02 X73.2219 Y44.7219 I0.4210 J1.0164
G02 X72.9834 Y45.0788 I0.7779 J0.7779
G02 X72.8997 Y45.4998 I1.0164 J0.4210
G02 X72.9834 Y45.9209 I1.1002 J0.0000
G02 X73.2219 Y46.2778 I1.0164 J-0.4210
G02 X73.5789 Y46.5163 I0.7779 J-0.7779
G02 X73.9999 Y46.6000 I0.4210 J-1.0164
G02 X74.4209 Y46.5163 I0.0000 J-1.1002
G02 X74.7778 Y46.2778 I-0.4210 J-1.0164
G02 X75.0163 Y45.9209 I-0.7779 J-0.7779
G02 X75.1000 Y45.4998 I-1.0164 J-0.4210
G02 X73.4498 Y44.5471 I-1.1002 J0.0000
G02 Y46.4526 I0.5501 J0.9528
G02 X75.1000 Y45.4998 I0.5501 J-0.9528
G00 X74.8999
G02 X73.5499 Y44.7204 Z-4.3333 I-0.9000 J0.0000 F900
G02 Y46.2793 Z-4.6667 I0.4500 J0.7794
G02 X74.8999 Y45.4998 Z-5.0000 I0.4500 J-0.7794
G02 X73.5499 Y44.7204 I-0.9000 J0.0000
G02 Y46.2793 I0.4500 J0.7794
G02 X74.8999 Y45.4998 I0.4500 J-0.7794
G02 X74.9353 Y45.1124 I-0.8803 J-0.2758 F1200
G02 X74.7778 Y44.7219 I-1.0190 J0.1840
G02 X74.4209 Y44.4834 I-0.7779 J0.7779
G02 X73.9999 Y44.3997 I-0.4210 J1.0164
G02 X73.5789 Y44.4834 I0.0000 J1.1002
G02 X73.2219 Y44.7219 I0.4210 J1.0164
G02 X72.9834 Y45.0788 I0.7779 J0.7779
G02 X72.8997 Y45.4998 I1.0164 J0.4210
G02 X72.9834 Y45.9209 I1.1002 J0.0000
G02 X73.2219 Y46.2778 I1.0164 J-0.4210
G02 X73.5789 Y46.5163 I0.7779 J-0.7779
G02 X73.9999 Y46.6000 I0.4210 J-1.0164
G02 X74.4209 Y46.5163 I0.0000 J-1.1002
G02 X74.7778 Y46.2778 I-0.4210 J-1.0164
G02 X75.0163 Y45.9209 I-0.7779 J-0.7779
G02 X75.1000 Y45.4998 I-1.0164 J-0.4210
G02 X73.4498 Y44.5471 I-1.1002 J0.0000
G02 Y46.4526 I0.5501 J0.9528
G02 X75.1000 Y45.4998 I0.5501 J-0.9528
G00 X74.8999
G02 X73.5499 Y44.7204 Z-5.1667 I-0.9000 J0.0000 F900
G02 Y46.2793 Z-5.3333 I0.4500 J0.7794
G02 X74.8999 Y45.4998 Z-5.5000 I0.4500 J-0.7794
G02 X73.5499 Y44.7204 I-0.9000 J0.0000
G02 Y46.2793 I0.4500 J0.7794
G02 X74.8999 Y45.4998 I0.4500 J-0.7794
G02 X74.9353 Y45.1124 I-0.8803 J-0.2758 F1200
G02 X74.7778 Y44.7219 I-1.0190 J0.1840
G02 X74.4209 Y44.4834 I-0.7779 J0.7779
G02 X73.9999 Y44.3997 I-0.4210 J1.0164
G02 X73.5789 Y44.4834 I0.0000 J1.1002
G02 X73.2219 Y44.7219 I0.4210 J1.0164
G02 X72.9834 Y45.0788 I0.7779 J0.7779
G02 X72.8997 Y45.4998 I1.0164 J0.4210
G02 X72.9834 Y45.9209 I1.1002 J0.0000
G02 X73.2219 Y46.2778 I1.0164 J-0.4210
G02 X73.5789 Y46.5163 I0.7779 J-0.7779
G02 X73.9999 Y46.6000 I0.4210 J-1.0164
G02 X74.4209 Y46.5163 I0.0000 J-1.1002
G02 X74.7778 Y46.2778 I-0.4210 J-1.0164
G02 X75.0163 Y45.9209 I-0.7779 J-0.7779
G02 X75.1000 Y45.4998 I-1.0164 J-0.4210
G02 X73.4498 Y44.5471 I-1.1002 J0.0000
G02 Y46.4526 I0.5501 J0.9528
G02 X75.1000 Y45.4998 I0.5501 J-0.9528
G00 Z5.0000


(Nr. 28: Kreistasche 10)
G00 X51.8997 Y22.4999 Z5.0000
G00 Z0.5000
G02 X50.5497 Y21.7204 Z0.3333 I-0.9000 J0.0000 F900
G02 Y23.2793 Z0.1667 I0.4500 J0.7794
G02 X51.8997 Y22.4999 Z0.0000 I0.4500 J-0.7794
G02 X50.5497 Y21.7204 I-0.9000 J0.0000
G02 Y23.2793 I0.4500 J0.7794
G02 X51.8997 Y22.4999 I0.4500 J-0.7794
G02 X50.5497 Y21.7204 Z-0.3333 I-0.9000 J0.0000
G02 Y23.2793 Z-0.6667 I0.4500 J0.7794
G02 X51.8997 Y22.4999 Z-1.0000 I0.4500 J-0.7794
G02 X50.5497 Y21.7204 I-0.9000 J0.0000
G02 Y23.2793 I0.4500 J0.7794
G02 X51.8997 Y22.4999 I0.4500 J-0.7794
G02 X51.9352 Y22.1124 I-0.8803 J-0.2758 F1200
G02 X51.7776 Y21.7220 I-1.0190 J0.1843
G02 X51.4207 Y21.4836 I-0.7778 J0.7778
G02 X50.9997 Y21.3998 I-0.4210 J1.0163
G02 X50.5788 Y21.4836 I0.0000 J1.1000
G02 X50.2219 Y21.7220 I0.4210 J1.0163
G02 X49.9834 Y22.0789 I0.7778 J0.7778
G02 X49.8997 Y22.4999 I1.0163 J0.4210
G02 X49.9834 Y22.9208 I1.1000 J0.0000
G02 X50.2219 Y23.2777 I1.0163 J-0.4210
G02 X50.5788 Y23.5162 I0.7778 J-0.7778
G02 X50.9997 Y23.5999 I0.4210 J-1.0163
G02 X51.4207 Y23.5162 I0.0000 J-1.1000
G02 X51.7776 Y23.2777 I-0.4210 J-1.0163
G02 X52.0160 Y22.9208 I-0.7778 J-0.7778
G02 X52.0998 Y22.4999 I-1.0163 J-0.4210
G02 X50.4497 Y21.5472 I-1.1000 J0.0000
G02 Y23.4525 I0.5500 J0.9527
G02 X52.0998 Y22.4999 I0.5500 J-0.9527
G00 X51.8997
G02 X50.5497 Y21.7204 Z-1.3333 I-0.9000 J0.0000 F900
G02 Y23.2793 Z-1.6667 I0.4500 J0.7794
G02 X51.8997 Y22.4999 Z-2.0000 I0.4500 J-0.7794
G02 X50.5497 Y21.7204 I-0.9000 J0.0000
G02 Y23.2793 I0.4500 J0.7794
G02 X51.8997 Y22.4999 I0.4500 J-0.7794
G02 X51.9352 Y22.1124 I-0.8803 J-0.2758 F1200
G02 X51.7776 Y21.7220 I-1.0190 J0.1843
G02 X51.4207 Y21.4836 I-0.7778 J0.7778
G02 X50.9997 Y21.3998 I-0.4210 J1.0163
G02 X50.5788 Y21.4836 I0.0000 J1.1000
G02 X50.2219 Y21.7220 I0.4210 J1.0163
G02 X49.9834 Y22.0789 I0.7778 J0.7778
G02 X49.8997 Y22.4999 I1.0163 J0.4210
G02 X49.9834 Y22.9208 I1.1000 J0.0000
G02 X50.2219 Y23.2777 I1.0163 J-0.4210
G02 X50.5788 Y23.5162 I0.7778 J-0.7778
G02 X50.9997 Y23.5999 I0.4210 J-1.0163
G02 X51.4207 Y23.5162 I0.0000 J-1.1000
G02 X51.7776 Y23.2777 I-0.4210 J-1.0163
G02 X52.0160 Y22.9208 I-0.7778 J-0.7778
G02 X52.0998 Y22.4999 I-1.0163 J-0.4210
G02 X50.4497 Y21.5472 I-1.1000 J0.0000
G02 Y23.4525 I0.5500 J0.9527
G02 X52.0998 Y22.4999 I0.5500 J-0.9527
G00 X51.8997
G02 X50.5497 Y21.7204 Z-2.3333 I-0.9000 J0.0000 F900
G02 Y23.2793 Z-2.6667 I0.4500 J0.7794
G02 X51.8997 Y22.4999 Z-3.0000 I0.4500 J-0.7794
G02 X50.5497 Y21.7204 I-0.9000 J0.0000
G02 Y23.2793 I0.4500 J0.7794
G02 X51.8997 Y22.4999 I0.4500 J-0.7794
G02 X51.9352 Y22.1124 I-0.8803 J-0.2758 F1200
G02 X51.7776 Y21.7220 I-1.0190 J0.1843
G02 X51.4207 Y21.4836 I-0.7778 J0.7778
G02 X50.9997 Y21.3998 I-0.4210 J1.0163
G02 X50.5788 Y21.4836 I0.0000 J1.1000
G02 X50.2219 Y21.7220 I0.4210 J1.0163
G02 X49.9834 Y22.0789 I0.7778 J0.7778
G02 X49.8997 Y22.4999 I1.0163 J0.4210
G02 X49.9834 Y22.9208 I1.1000 J0.0000
G02 X50.2219 Y23.2777 I1.0163 J-0.4210
G02 X50.5788 Y23.5162 I0.7778 J-0.7778
G02 X50.9997 Y23.5999 I0.4210 J-1.0163
G02 X51.4207 Y23.5162 I0.0000 J-1.1000
G02 X51.7776 Y23.2777 I-0.4210 J-1.0163
G02 X52.0160 Y22.9208 I-0.7778 J-0.7778
G02 X52.0998 Y22.4999 I-1.0163 J-0.4210
G02 X50.4497 Y21.5472 I-1.1000 J0.0000
G02 Y23.4525 I0.5500 J0.9527
G02 X52.0998 Y22.4999 I0.5500 J-0.9527
G00 X51.8997
G02 X50.5497 Y21.7204 Z-3.3333 I-0.9000 J0.0000 F900
G02 Y23.2793 Z-3.6667 I0.4500 J0.7794
G02 X51.8997 Y22.4999 Z-4.0000 I0.4500 J-0.7794
G02 X50.5497 Y21.7204 I-0.9000 J0.0000
G02 Y23.2793 I0.4500 J0.7794
G02 X51.8997 Y22.4999 I0.4500 J-0.7794
G02 X51.9352 Y22.1124 I-0.8803 J-0.2758 F1200
G02 X51.7776 Y21.7220 I-1.0190 J0.1843
G02 X51.4207 Y21.4836 I-0.7778 J0.7778
G02 X50.9997 Y21.3998 I-0.4210 J1.0163
G02 X50.5788 Y21.4836 I0.0000 J1.1000
G02 X50.2219 Y21.7220 I0.4210 J1.0163
G02 X49.9834 Y22.0789 I0.7778 J0.7778
G02 X49.8997 Y22.4999 I1.0163 J0.4210
G02 X49.9834 Y22.9208 I1.1000 J0.0000
G02 X50.2219 Y23.2777 I1.0163 J-0.4210
G02 X50.5788 Y23.5162 I0.7778 J-0.7778
G02 X50.9997 Y23.5999 I0.4210 J-1.0163
G02 X51.4207 Y23.5162 I0.0000 J-1.1000
G02 X51.7776 Y23.2777 I-0.4210 J-1.0163
G02 X52.0160 Y22.9208 I-0.7778 J-0.7778
G02 X52.0998 Y22.4999 I-1.0163 J-0.4210
G02 X50.4497 Y21.5472 I-1.1000 J0.0000
G02 Y23.4525 I0.5500 J0.9527
G02 X52.0998 Y22.4999 I0.5500 J-0.9527
G00 X51.8997
G02 X50.5497 Y21.7204 Z-4.3333 I-0.9000 J0.0000 F900
G02 Y23.2793 Z-4.6667 I0.4500 J0.7794
G02 X51.8997 Y22.4999 Z-5.0000 I0.4500 J-0.7794
G02 X50.5497 Y21.7204 I-0.9000 J0.0000
G02 Y23.2793 I0.4500 J0.7794
G02 X51.8997 Y22.4999 I0.4500 J-0.7794
G02 X51.9352 Y22.1124 I-0.8803 J-0.2758 F1200
G02 X51.7776 Y21.7220 I-1.0190 J0.1843
G02 X51.4207 Y21.4836 I-0.7778 J0.7778
G02 X50.9997 Y21.3998 I-0.4210 J1.0163
G02 X50.5788 Y21.4836 I0.0000 J1.1000
G02 X50.2219 Y21.7220 I0.4210 J1.0163
G02 X49.9834 Y22.0789 I0.7778 J0.7778
G02 X49.8997 Y22.4999 I1.0163 J0.4210
G02 X49.9834 Y22.9208 I1.1000 J0.0000
G02 X50.2219 Y23.2777 I1.0163 J-0.4210
G02 X50.5788 Y23.5162 I0.7778 J-0.7778
G02 X50.9997 Y23.5999 I0.4210 J-1.0163
G02 X51.4207 Y23.5162 I0.0000 J-1.1000
G02 X51.7776 Y23.2777 I-0.4210 J-1.0163
G02 X52.0160 Y22.9208 I-0.7778 J-0.7778
G02 X52.0998 Y22.4999 I-1.0163 J-0.4210
G02 X50.4497 Y21.5472 I-1.1000 J0.0000
G02 Y23.4525 I0.5500 J0.9527
G02 X52.0998 Y22.4999 I0.5500 J-0.9527
G00 X51.8997
G02 X50.5497 Y21.7204 Z-5.1667 I-0.9000 J0.0000 F900
G02 Y23.2793 Z-5.3333 I0.4500 J0.7794
G02 X51.8997 Y22.4999 Z-5.5000 I0.4500 J-0.7794
G02 X50.5497 Y21.7204 I-0.9000 J0.0000
G02 Y23.2793 I0.4500 J0.7794
G02 X51.8997 Y22.4999 I0.4500 J-0.7794
G02 X51.9352 Y22.1124 I-0.8803 J-0.2758 F1200
G02 X51.7776 Y21.7220 I-1.0190 J0.1843
G02 X51.4207 Y21.4836 I-0.7778 J0.7778
G02 X50.9997 Y21.3998 I-0.4210 J1.0163
G02 X50.5788 Y21.4836 I0.0000 J1.1000
G02 X50.2219 Y21.7220 I0.4210 J1.0163
G02 X49.9834 Y22.0789 I0.7778 J0.7778
G02 X49.8997 Y22.4999 I1.0163 J0.4210
G02 X49.9834 Y22.9208 I1.1000 J0.0000
G02 X50.2219 Y23.2777 I1.0163 J-0.4210
G02 X50.5788 Y23.5162 I0.7778 J-0.7778
G02 X50.9997 Y23.5999 I0.4210 J-1.0163
G02 X51.4207 Y23.5162 I0.0000 J-1.1000
G02 X51.7776 Y23.2777 I-0.4210 J-1.0163
G02 X52.0160 Y22.9208 I-0.7778 J-0.7778
G02 X52.0998 Y22.4999 I-1.0163 J-0.4210
G02 X50.4497 Y21.5472 I-1.1000 J0.0000
G02 Y23.4525 I0.5500 J0.9527
G02 X52.0998 Y22.4999 I0.5500 J-0.9527
G00 Z5.0000


(Nr. 29: Kreistasche 9)
G00 X56.3999 Y27.5998 Z5.0000
G00 Z0.5000
G02 X55.0499 Y26.8204 Z0.3333 I-0.9000 J0.0000 F900
G02 Y28.3793 Z0.1667 I0.4500 J0.7794
G02 X56.3999 Y27.5998 Z0.0000 I0.4500 J-0.7794
G02 X55.0499 Y26.8204 I-0.9000 J0.0000
G02 Y28.3793 I0.4500 J0.7794
G02 X56.3999 Y27.5998 I0.4500 J-0.7794
G02 X55.0499 Y26.8204 Z-0.3333 I-0.9000 J0.0000
G02 Y28.3793 Z-0.6667 I0.4500 J0.7794
G02 X56.3999 Y27.5998 Z-1.0000 I0.4500 J-0.7794
G02 X55.0499 Y26.8204 I-0.9000 J0.0000
G02 Y28.3793 I0.4500 J0.7794
G02 X56.3999 Y27.5998 I0.4500 J-0.7794
G02 X56.4353 Y27.2124 I-0.8803 J-0.2758 F1200
G02 X56.2778 Y26.8219 I-1.0190 J0.1840
G02 X55.9209 Y26.5834 I-0.7779 J0.7779
G02 X55.4999 Y26.4997 I-0.4210 J1.0164
G02 X55.0788 Y26.5834 I0.0000 J1.1002
G02 X54.7219 Y26.8219 I0.4210 J1.0164
G02 X54.4834 Y27.1788 I0.7779 J0.7779
G02 X54.3997 Y27.5998 I1.0164 J0.4210
G02 X54.4834 Y28.0209 I1.1002 J0.0000
G02 X54.7219 Y28.3778 I1.0164 J-0.4210
G02 X55.0788 Y28.6163 I0.7779 J-0.7779
G02 X55.4999 Y28.7000 I0.4210 J-1.0164
G02 X55.9209 Y28.6163 I0.0000 J-1.1002
G02 X56.2778 Y28.3778 I-0.4210 J-1.0164
G02 X56.5163 Y28.0209 I-0.7779 J-0.7779
G02 X56.6000 Y27.5998 I-1.0164 J-0.4210
G02 X54.9498 Y26.6471 I-1.1002 J0.0000
G02 Y28.5526 I0.5501 J0.9528
G02 X56.6000 Y27.5998 I0.5501 J-0.9528
G00 X56.3999
G02 X55.0499 Y26.8204 Z-1.3333 I-0.9000 J0.0000 F900
G02 Y28.3793 Z-1.6667 I0.4500 J0.7794
G02 X56.3999 Y27.5998 Z-2.0000 I0.4500 J-0.7794
G02 X55.0499 Y26.8204 I-0.9000 J0.0000
G02 Y28.3793 I0.4500 J0.7794
G02 X56.3999 Y27.5998 I0.4500 J-0.7794
G02 X56.4353 Y27.2124 I-0.8803 J-0.2758 F1200
G02 X56.2778 Y26.8219 I-1.0190 J0.1840
G02 X55.9209 Y26.5834 I-0.7779 J0.7779
G02 X55.4999 Y26.4997 I-0.4210 J1.0164
G02 X55.0788 Y26.5834 I0.0000 J1.1002
G02 X54.7219 Y26.8219 I0.4210 J1.0164
G02 X54.4834 Y27.1788 I0.7779 J0.7779
G02 X54.3997 Y27.5998 I1.0164 J0.4210
G02 X54.4834 Y28.0209 I1.1002 J0.0000
G02 X54.7219 Y28.3778 I1.0164 J-0.4210
G02 X55.0788 Y28.6163 I0.7779 J-0.7779
G02 X55.4999 Y28.7000 I0.4210 J-1.0164
G02 X55.9209 Y28.6163 I0.0000 J-1.1002
G02 X56.2778 Y28.3778 I-0.4210 J-1.0164
G02 X56.5163 Y28.0209 I-0.7779 J-0.7779
G02 X56.6000 Y27.5998 I-1.0164 J-0.4210
G02 X54.9498 Y26.6471 I-1.1002 J0.0000
G02 Y28.5526 I0.5501 J0.9528
G02 X56.6000 Y27.5998 I0.5501 J-0.9528
G00 X56.3999
G02 X55.0499 Y26.8204 Z-2.3333 I-0.9000 J0.0000 F900
G02 Y28.3793 Z-2.6667 I0.4500 J0.7794
G02 X56.3999 Y27.5998 Z-3.0000 I0.4500 J-0.7794
G02 X55.0499 Y26.8204 I-0.9000 J0.0000
G02 Y28.3793 I0.4500 J0.7794
G02 X56.3999 Y27.5998 I0.4500 J-0.7794
G02 X56.4353 Y27.2124 I-0.8803 J-0.2758 F1200
G02 X56.2778 Y26.8219 I-1.0190 J0.1840
G02 X55.9209 Y26.5834 I-0.7779 J0.7779
G02 X55.4999 Y26.4997 I-0.4210 J1.0164
G02 X55.0788 Y26.5834 I0.0000 J1.1002
G02 X54.7219 Y26.8219 I0.4210 J1.0164
G02 X54.4834 Y27.1788 I0.7779 J0.7779
G02 X54.3997 Y27.5998 I1.0164 J0.4210
G02 X54.4834 Y28.0209 I1.1002 J0.0000
G02 X54.7219 Y28.3778 I1.0164 J-0.4210
G02 X55.0788 Y28.6163 I0.7779 J-0.7779
G02 X55.4999 Y28.7000 I0.4210 J-1.0164
G02 X55.9209 Y28.6163 I0.0000 J-1.1002
G02 X56.2778 Y28.3778 I-0.4210 J-1.0164
G02 X56.5163 Y28.0209 I-0.7779 J-0.7779
G02 X56.6000 Y27.5998 I-1.0164 J-0.4210
G02 X54.9498 Y26.6471 I-1.1002 J0.0000
G02 Y28.5526 I0.5501 J0.9528
G02 X56.6000 Y27.5998 I0.5501 J-0.9528
G00 X56.3999
G02 X55.0499 Y26.8204 Z-3.3333 I-0.9000 J0.0000 F900
G02 Y28.3793 Z-3.6667 I0.4500 J0.7794
G02 X56.3999 Y27.5998 Z-4.0000 I0.4500 J-0.7794
G02 X55.0499 Y26.8204 I-0.9000 J0.0000
G02 Y28.3793 I0.4500 J0.7794
G02 X56.3999 Y27.5998 I0.4500 J-0.7794
G02 X56.4353 Y27.2124 I-0.8803 J-0.2758 F1200
G02 X56.2778 Y26.8219 I-1.0190 J0.1840
G02 X55.9209 Y26.5834 I-0.7779 J0.7779
G02 X55.4999 Y26.4997 I-0.4210 J1.0164
G02 X55.0788 Y26.5834 I0.0000 J1.1002
G02 X54.7219 Y26.8219 I0.4210 J1.0164
G02 X54.4834 Y27.1788 I0.7779 J0.7779
G02 X54.3997 Y27.5998 I1.0164 J0.4210
G02 X54.4834 Y28.0209 I1.1002 J0.0000
G02 X54.7219 Y28.3778 I1.0164 J-0.4210
G02 X55.0788 Y28.6163 I0.7779 J-0.7779
G02 X55.4999 Y28.7000 I0.4210 J-1.0164
G02 X55.9209 Y28.6163 I0.0000 J-1.1002
G02 X56.2778 Y28.3778 I-0.4210 J-1.0164
G02 X56.5163 Y28.0209 I-0.7779 J-0.7779
G02 X56.6000 Y27.5998 I-1.0164 J-0.4210
G02 X54.9498 Y26.6471 I-1.1002 J0.0000
G02 Y28.5526 I0.5501 J0.9528
G02 X56.6000 Y27.5998 I0.5501 J-0.9528
G00 X56.3999
G02 X55.0499 Y26.8204 Z-4.3333 I-0.9000 J0.0000 F900
G02 Y28.3793 Z-4.6667 I0.4500 J0.7794
G02 X56.3999 Y27.5998 Z-5.0000 I0.4500 J-0.7794
G02 X55.0499 Y26.8204 I-0.9000 J0.0000
G02 Y28.3793 I0.4500 J0.7794
G02 X56.3999 Y27.5998 I0.4500 J-0.7794
G02 X56.4353 Y27.2124 I-0.8803 J-0.2758 F1200
G02 X56.2778 Y26.8219 I-1.0190 J0.1840
G02 X55.9209 Y26.5834 I-0.7779 J0.7779
G02 X55.4999 Y26.4997 I-0.4210 J1.0164
G02 X55.0788 Y26.5834 I0.0000 J1.1002
G02 X54.7219 Y26.8219 I0.4210 J1.0164
G02 X54.4834 Y27.1788 I0.7779 J0.7779
G02 X54.3997 Y27.5998 I1.0164 J0.4210
G02 X54.4834 Y28.0209 I1.1002 J0.0000
G02 X54.7219 Y28.3778 I1.0164 J-0.4210
G02 X55.0788 Y28.6163 I0.7779 J-0.7779
G02 X55.4999 Y28.7000 I0.4210 J-1.0164
G02 X55.9209 Y28.6163 I0.0000 J-1.1002
G02 X56.2778 Y28.3778 I-0.4210 J-1.0164
G02 X56.5163 Y28.0209 I-0.7779 J-0.7779
G02 X56.6000 Y27.5998 I-1.0164 J-0.4210
G02 X54.9498 Y26.6471 I-1.1002 J0.0000
G02 Y28.5526 I0.5501 J0.9528
G02 X56.6000 Y27.5998 I0.5501 J-0.9528
G00 X56.3999
G02 X55.0499 Y26.8204 Z-5.1667 I-0.9000 J0.0000 F900
G02 Y28.3793 Z-5.3333 I0.4500 J0.7794
G02 X56.3999 Y27.5998 Z-5.5000 I0.4500 J-0.7794
G02 X55.0499 Y26.8204 I-0.9000 J0.0000
G02 Y28.3793 I0.4500 J0.7794
G02 X56.3999 Y27.5998 I0.4500 J-0.7794
G02 X56.4353 Y27.2124 I-0.8803 J-0.2758 F1200
G02 X56.2778 Y26.8219 I-1.0190 J0.1840
G02 X55.9209 Y26.5834 I-0.7779 J0.7779
G02 X55.4999 Y26.4997 I-0.4210 J1.0164
G02 X55.0788 Y26.5834 I0.0000 J1.1002
G02 X54.7219 Y26.8219 I0.4210 J1.0164
G02 X54.4834 Y27.1788 I0.7779 J0.7779
G02 X54.3997 Y27.5998 I1.0164 J0.4210
G02 X54.4834 Y28.0209 I1.1002 J0.0000
G02 X54.7219 Y28.3778 I1.0164 J-0.4210
G02 X55.0788 Y28.6163 I0.7779 J-0.7779
G02 X55.4999 Y28.7000 I0.4210 J-1.0164
G02 X55.9209 Y28.6163 I0.0000 J-1.1002
G02 X56.2778 Y28.3778 I-0.4210 J-1.0164
G02 X56.5163 Y28.0209 I-0.7779 J-0.7779
G02 X56.6000 Y27.5998 I-1.0164 J-0.4210
G02 X54.9498 Y26.6471 I-1.1002 J0.0000
G02 Y28.5526 I0.5501 J0.9528
G02 X56.6000 Y27.5998 I0.5501 J-0.9528
G00 Z5.0000


(Nr. 30: Kreistasche 11)
G00 X70.3999 Y27.5999 Z5.0000
G00 Z0.5000
G02 X69.0499 Y26.8204 Z0.3333 I-0.9000 J0.0000 F900
G02 Y28.3793 Z0.1667 I0.4500 J0.7794
G02 X70.3999 Y27.5999 Z0.0000 I0.4500 J-0.7794
G02 X69.0499 Y26.8204 I-0.9000 J0.0000
G02 Y28.3793 I0.4500 J0.7794
G02 X70.3999 Y27.5999 I0.4500 J-0.7794
G02 X69.0499 Y26.8204 Z-0.3333 I-0.9000 J0.0000
G02 Y28.3793 Z-0.6667 I0.4500 J0.7794
G02 X70.3999 Y27.5999 Z-1.0000 I0.4500 J-0.7794
G02 X69.0499 Y26.8204 I-0.9000 J0.0000
G02 Y28.3793 I0.4500 J0.7794
G02 X70.3999 Y27.5999 I0.4500 J-0.7794
G02 X70.4353 Y27.2124 I-0.8803 J-0.2758 F1200
G02 X70.2778 Y26.8219 I-1.0190 J0.1840
G02 X69.9209 Y26.5834 I-0.7779 J0.7779
G02 X69.4999 Y26.4997 I-0.4210 J1.0164
G02 X69.0789 Y26.5834 I0.0000 J1.1002
G02 X68.7219 Y26.8219 I0.4210 J1.0164
G02 X68.4835 Y27.1788 I0.7779 J0.7779
G02 X68.3997 Y27.5999 I1.0164 J0.4210
G02 X68.4835 Y28.0209 I1.1002 J0.0000
G02 X68.7219 Y28.3778 I1.0164 J-0.4210
G02 X69.0789 Y28.6163 I0.7779 J-0.7779
G02 X69.4999 Y28.7000 I0.4210 J-1.0164
G02 X69.9209 Y28.6163 I0.0000 J-1.1002
G02 X70.2778 Y28.3778 I-0.4210 J-1.0164
G02 X70.5163 Y28.0209 I-0.7779 J-0.7779
G02 X70.6001 Y27.5999 I-1.0164 J-0.4210
G02 X68.9498 Y26.6471 I-1.1002 J0.0000
G02 Y28.5526 I0.5501 J0.9528
G02 X70.6001 Y27.5999 I0.5501 J-0.9528
G00 X70.3999
G02 X69.0499 Y26.8204 Z-1.3333 I-0.9000 J0.0000 F900
G02 Y28.3793 Z-1.6667 I0.4500 J0.7794
G02 X70.3999 Y27.5999 Z-2.0000 I0.4500 J-0.7794
G02 X69.0499 Y26.8204 I-0.9000 J0.0000
G02 Y28.3793 I0.4500 J0.7794
G02 X70.3999 Y27.5999 I0.4500 J-0.7794
G02 X70.4353 Y27.2124 I-0.8803 J-0.2758 F1200
G02 X70.2778 Y26.8219 I-1.0190 J0.1840
G02 X69.9209 Y26.5834 I-0.7779 J0.7779
G02 X69.4999 Y26.4997 I-0.4210 J1.0164
G02 X69.0789 Y26.5834 I0.0000 J1.1002
G02 X68.7219 Y26.8219 I0.4210 J1.0164
G02 X68.4835 Y27.1788 I0.7779 J0.7779
G02 X68.3997 Y27.5999 I1.0164 J0.4210
G02 X68.4835 Y28.0209 I1.1002 J0.0000
G02 X68.7219 Y28.3778 I1.0164 J-0.4210
G02 X69.0789 Y28.6163 I0.7779 J-0.7779
G02 X69.4999 Y28.7000 I0.4210 J-1.0164
G02 X69.9209 Y28.6163 I0.0000 J-1.1002
G02 X70.2778 Y28.3778 I-0.4210 J-1.0164
G02 X70.5163 Y28.0209 I-0.7779 J-0.7779
G02 X70.6001 Y27.5999 I-1.0164 J-0.4210
G02 X68.9498 Y26.6471 I-1.1002 J0.0000
G02 Y28.5526 I0.5501 J0.9528
G02 X70.6001 Y27.5999 I0.5501 J-0.9528
G00 X70.3999
G02 X69.0499 Y26.8204 Z-2.3333 I-0.9000 J0.0000 F900
G02 Y28.3793 Z-2.6667 I0.4500 J0.7794
G02 X70.3999 Y27.5999 Z-3.0000 I0.4500 J-0.7794
G02 X69.0499 Y26.8204 I-0.9000 J0.0000
G02 Y28.3793 I0.4500 J0.7794
G02 X70.3999 Y27.5999 I0.4500 J-0.7794
G02 X70.4353 Y27.2124 I-0.8803 J-0.2758 F1200
G02 X70.2778 Y26.8219 I-1.0190 J0.1840
G02 X69.9209 Y26.5834 I-0.7779 J0.7779
G02 X69.4999 Y26.4997 I-0.4210 J1.0164
G02 X69.0789 Y26.5834 I0.0000 J1.1002
G02 X68.7219 Y26.8219 I0.4210 J1.0164
G02 X68.4835 Y27.1788 I0.7779 J0.7779
G02 X68.3997 Y27.5999 I1.0164 J0.4210
G02 X68.4835 Y28.0209 I1.1002 J0.0000
G02 X68.7219 Y28.3778 I1.0164 J-0.4210
G02 X69.0789 Y28.6163 I0.7779 J-0.7779
G02 X69.4999 Y28.7000 I0.4210 J-1.0164
G02 X69.9209 Y28.6163 I0.0000 J-1.1002
G02 X70.2778 Y28.3778 I-0.4210 J-1.0164
G02 X70.5163 Y28.0209 I-0.7779 J-0.7779
G02 X70.6001 Y27.5999 I-1.0164 J-0.4210
G02 X68.9498 Y26.6471 I-1.1002 J0.0000
G02 Y28.5526 I0.5501 J0.9528
G02 X70.6001 Y27.5999 I0.5501 J-0.9528
G00 X70.3999
G02 X69.0499 Y26.8204 Z-3.3333 I-0.9000 J0.0000 F900
G02 Y28.3793 Z-3.6667 I0.4500 J0.7794
G02 X70.3999 Y27.5999 Z-4.0000 I0.4500 J-0.7794
G02 X69.0499 Y26.8204 I-0.9000 J0.0000
G02 Y28.3793 I0.4500 J0.7794
G02 X70.3999 Y27.5999 I0.4500 J-0.7794
G02 X70.4353 Y27.2124 I-0.8803 J-0.2758 F1200
G02 X70.2778 Y26.8219 I-1.0190 J0.1840
G02 X69.9209 Y26.5834 I-0.7779 J0.7779
G02 X69.4999 Y26.4997 I-0.4210 J1.0164
G02 X69.0789 Y26.5834 I0.0000 J1.1002
G02 X68.7219 Y26.8219 I0.4210 J1.0164
G02 X68.4835 Y27.1788 I0.7779 J0.7779
G02 X68.3997 Y27.5999 I1.0164 J0.4210
G02 X68.4835 Y28.0209 I1.1002 J0.0000
G02 X68.7219 Y28.3778 I1.0164 J-0.4210
G02 X69.0789 Y28.6163 I0.7779 J-0.7779
G02 X69.4999 Y28.7000 I0.4210 J-1.0164
G02 X69.9209 Y28.6163 I0.0000 J-1.1002
G02 X70.2778 Y28.3778 I-0.4210 J-1.0164
G02 X70.5163 Y28.0209 I-0.7779 J-0.7779
G02 X70.6001 Y27.5999 I-1.0164 J-0.4210
G02 X68.9498 Y26.6471 I-1.1002 J0.0000
G02 Y28.5526 I0.5501 J0.9528
G02 X70.6001 Y27.5999 I0.5501 J-0.9528
G00 X70.3999
G02 X69.0499 Y26.8204 Z-4.3333 I-0.9000 J0.0000 F900
G02 Y28.3793 Z-4.6667 I0.4500 J0.7794
G02 X70.3999 Y27.5999 Z-5.0000 I0.4500 J-0.7794
G02 X69.0499 Y26.8204 I-0.9000 J0.0000
G02 Y28.3793 I0.4500 J0.7794
G02 X70.3999 Y27.5999 I0.4500 J-0.7794
G02 X70.4353 Y27.2124 I-0.8803 J-0.2758 F1200
G02 X70.2778 Y26.8219 I-1.0190 J0.1840
G02 X69.9209 Y26.5834 I-0.7779 J0.7779
G02 X69.4999 Y26.4997 I-0.4210 J1.0164
G02 X69.0789 Y26.5834 I0.0000 J1.1002
G02 X68.7219 Y26.8219 I0.4210 J1.0164
G02 X68.4835 Y27.1788 I0.7779 J0.7779
G02 X68.3997 Y27.5999 I1.0164 J0.4210
G02 X68.4835 Y28.0209 I1.1002 J0.0000
G02 X68.7219 Y28.3778 I1.0164 J-0.4210
G02 X69.0789 Y28.6163 I0.7779 J-0.7779
G02 X69.4999 Y28.7000 I0.4210 J-1.0164
G02 X69.9209 Y28.6163 I0.0000 J-1.1002
G02 X70.2778 Y28.3778 I-0.4210 J-1.0164
G02 X70.5163 Y28.0209 I-0.7779 J-0.7779
G02 X70.6001 Y27.5999 I-1.0164 J-0.4210
G02 X68.9498 Y26.6471 I-1.1002 J0.0000
G02 Y28.5526 I0.5501 J0.9528
G02 X70.6001 Y27.5999 I0.5501 J-0.9528
G00 X70.3999
G02 X69.0499 Y26.8204 Z-5.1667 I-0.9000 J0.0000 F900
G02 Y28.3793 Z-5.3333 I0.4500 J0.7794
G02 X70.3999 Y27.5999 Z-5.5000 I0.4500 J-0.7794
G02 X69.0499 Y26.8204 I-0.9000 J0.0000
G02 Y28.3793 I0.4500 J0.7794
G02 X70.3999 Y27.5999 I0.4500 J-0.7794
G02 X70.4353 Y27.2124 I-0.8803 J-0.2758 F1200
G02 X70.2778 Y26.8219 I-1.0190 J0.1840
G02 X69.9209 Y26.5834 I-0.7779 J0.7779
G02 X69.4999 Y26.4997 I-0.4210 J1.0164
G02 X69.0789 Y26.5834 I0.0000 J1.1002
G02 X68.7219 Y26.8219 I0.4210 J1.0164
G02 X68.4835 Y27.1788 I0.7779 J0.7779
G02 X68.3997 Y27.5999 I1.0164 J0.4210
G02 X68.4835 Y28.0209 I1.1002 J0.0000
G02 X68.7219 Y28.3778 I1.0164 J-0.4210
G02 X69.0789 Y28.6163 I0.7779 J-0.7779
G02 X69.4999 Y28.7000 I0.4210 J-1.0164
G02 X69.9209 Y28.6163 I0.0000 J-1.1002
G02 X70.2778 Y28.3778 I-0.4210 J-1.0164
G02 X70.5163 Y28.0209 I-0.7779 J-0.7779
G02 X70.6001 Y27.5999 I-1.0164 J-0.4210
G02 X68.9498 Y26.6471 I-1.1002 J0.0000
G02 Y28.5526 I0.5501 J0.9528
G02 X70.6001 Y27.5999 I0.5501 J-0.9528
G00 Z5.0000


(Nr. 31: Kreistasche 12)
G00 X74.9000 Y22.5001 Z5.0000
G00 Z0.5000
G02 X73.5500 Y21.7207 Z0.3333 I-0.9000 J0.0000 F900
G02 Y23.2796 Z0.1667 I0.4500 J0.7794
G02 X74.9000 Y22.5001 Z0.0000 I0.4500 J-0.7794
G02 X73.5500 Y21.7207 I-0.9000 J0.0000
G02 Y23.2796 I0.4500 J0.7794
G02 X74.9000 Y22.5001 I0.4500 J-0.7794
G02 X73.5500 Y21.7207 Z-0.3333 I-0.9000 J0.0000
G02 Y23.2796 Z-0.6667 I0.4500 J0.7794
G02 X74.9000 Y22.5001 Z-1.0000 I0.4500 J-0.7794
G02 X73.5500 Y21.7207 I-0.9000 J0.0000
G02 Y23.2796 I0.4500 J0.7794
G02 X74.9000 Y22.5001 I0.4500 J-0.7794
G02 X74.9355 Y22.1127 I-0.8803 J-0.2758 F1200
G02 X74.7778 Y21.7224 I-1.0189 J0.1847
G02 X74.4209 Y21.4840 I-0.7778 J0.7778
G02 X74.0000 Y21.4002 I-0.4209 J1.0162
G02 X73.5791 Y21.4840 I0.0000 J1.0999
G02 X73.2223 Y21.7224 I0.4209 J1.0162
G02 X72.9839 Y22.0792 I0.7778 J0.7778
G02 X72.9001 Y22.5001 I1.0162 J0.4209
G02 X72.9839 Y22.9210 I1.0999 J0.0000
G02 X73.2223 Y23.2779 I1.0162 J-0.4209
G02 X73.5791 Y23.5163 I0.7778 J-0.7778
G02 X74.0000 Y23.6000 I0.4209 J-1.0162
G02 X74.4209 Y23.5163 I0.0000 J-1.0999
G02 X74.7778 Y23.2779 I-0.4209 J-1.0162
G02 X75.0162 Y22.9210 I-0.7778 J-0.7778
G02 X75.0999 Y22.5001 I-1.0162 J-0.4209
G02 X73.4501 Y21.5476 I-1.0999 J0.0000
G02 Y23.4527 I0.5500 J0.9525
G02 X75.0999 Y22.5001 I0.5500 J-0.9525
G00 X74.9000
G02 X73.5500 Y21.7207 Z-1.3333 I-0.9000 J0.0000 F900
G02 Y23.2796 Z-1.6667 I0.4500 J0.7794
G02 X74.9000 Y22.5001 Z-2.0000 I0.4500 J-0.7794
G02 X73.5500 Y21.7207 I-0.9000 J0.0000
G02 Y23.2796 I0.4500 J0.7794
G02 X74.9000 Y22.5001 I0.4500 J-0.7794
G02 X74.9355 Y22.1127 I-0.8803 J-0.2758 F1200
G02 X74.7778 Y21.7224 I-1.0189 J0.1847
G02 X74.4209 Y21.4840 I-0.7778 J0.7778
G02 X74.0000 Y21.4002 I-0.4209 J1.0162
G02 X73.5791 Y21.4840 I0.0000 J1.0999
G02 X73.2223 Y21.7224 I0.4209 J1.0162
G02 X72.9839 Y22.0792 I0.7778 J0.7778
G02 X72.9001 Y22.5001 I1.0162 J0.4209
G02 X72.9839 Y22.9210 I1.0999 J0.0000
G02 X73.2223 Y23.2779 I1.0162 J-0.4209
G02 X73.5791 Y23.5163 I0.7778 J-0.7778
G02 X74.0000 Y23.6000 I0.4209 J-1.0162
G02 X74.4209 Y23.5163 I0.0000 J-1.0999
G02 X74.7778 Y23.2779 I-0.4209 J-1.0162
G02 X75.0162 Y22.9210 I-0.7778 J-0.7778
G02 X75.0999 Y22.5001 I-1.0162 J-0.4209
G02 X73.4501 Y21.5476 I-1.0999 J0.0000
G02 Y23.4527 I0.5500 J0.9525
G02 X75.0999 Y22.5001 I0.5500 J-0.9525
G00 X74.9000
G02 X73.5500 Y21.7207 Z-2.3333 I-0.9000 J0.0000 F900
G02 Y23.2796 Z-2.6667 I0.4500 J0.7794
G02 X74.9000 Y22.5001 Z-3.0000 I0.4500 J-0.7794
G02 X73.5500 Y21.7207 I-0.9000 J0.0000
G02 Y23.2796 I0.4500 J0.7794
G02 X74.9000 Y22.5001 I0.4500 J-0.7794
G02 X74.9355 Y22.1127 I-0.8803 J-0.2758 F1200
G02 X74.7778 Y21.7224 I-1.0189 J0.1847
G02 X74.4209 Y21.4840 I-0.7778 J0.7778
G02 X74.0000 Y21.4002 I-0.4209 J1.0162
G02 X73.5791 Y21.4840 I0.0000 J1.0999
G02 X73.2223 Y21.7224 I0.4209 J1.0162
G02 X72.9839 Y22.0792 I0.7778 J0.7778
G02 X72.9001 Y22.5001 I1.0162 J0.4209
G02 X72.9839 Y22.9210 I1.0999 J0.0000
G02 X73.2223 Y23.2779 I1.0162 J-0.4209
G02 X73.5791 Y23.5163 I0.7778 J-0.7778
G02 X74.0000 Y23.6000 I0.4209 J-1.0162
G02 X74.4209 Y23.5163 I0.0000 J-1.0999
G02 X74.7778 Y23.2779 I-0.4209 J-1.0162
G02 X75.0162 Y22.9210 I-0.7778 J-0.7778
G02 X75.0999 Y22.5001 I-1.0162 J-0.4209
G02 X73.4501 Y21.5476 I-1.0999 J0.0000
G02 Y23.4527 I0.5500 J0.9525
G02 X75.0999 Y22.5001 I0.5500 J-0.9525
G00 X74.9000
G02 X73.5500 Y21.7207 Z-3.3333 I-0.9000 J0.0000 F900
G02 Y23.2796 Z-3.6667 I0.4500 J0.7794
G02 X74.9000 Y22.5001 Z-4.0000 I0.4500 J-0.7794
G02 X73.5500 Y21.7207 I-0.9000 J0.0000
G02 Y23.2796 I0.4500 J0.7794
G02 X74.9000 Y22.5001 I0.4500 J-0.7794
G02 X74.9355 Y22.1127 I-0.8803 J-0.2758 F1200
G02 X74.7778 Y21.7224 I-1.0189 J0.1847
G02 X74.4209 Y21.4840 I-0.7778 J0.7778
G02 X74.0000 Y21.4002 I-0.4209 J1.0162
G02 X73.5791 Y21.4840 I0.0000 J1.0999
G02 X73.2223 Y21.7224 I0.4209 J1.0162
G02 X72.9839 Y22.0792 I0.7778 J0.7778
G02 X72.9001 Y22.5001 I1.0162 J0.4209
G02 X72.9839 Y22.9210 I1.0999 J0.0000
G02 X73.2223 Y23.2779 I1.0162 J-0.4209
G02 X73.5791 Y23.5163 I0.7778 J-0.7778
G02 X74.0000 Y23.6000 I0.4209 J-1.0162
G02 X74.4209 Y23.5163 I0.0000 J-1.0999
G02 X74.7778 Y23.2779 I-0.4209 J-1.0162
G02 X75.0162 Y22.9210 I-0.7778 J-0.7778
G02 X75.0999 Y22.5001 I-1.0162 J-0.4209
G02 X73.4501 Y21.5476 I-1.0999 J0.0000
G02 Y23.4527 I0.5500 J0.9525
G02 X75.0999 Y22.5001 I0.5500 J-0.9525
G00 X74.9000
G02 X73.5500 Y21.7207 Z-4.3333 I-0.9000 J0.0000 F900
G02 Y23.2796 Z-4.6667 I0.4500 J0.7794
G02 X74.9000 Y22.5001 Z-5.0000 I0.4500 J-0.7794
G02 X73.5500 Y21.7207 I-0.9000 J0.0000
G02 Y23.2796 I0.4500 J0.7794
G02 X74.9000 Y22.5001 I0.4500 J-0.7794
G02 X74.9355 Y22.1127 I-0.8803 J-0.2758 F1200
G02 X74.7778 Y21.7224 I-1.0189 J0.1847
G02 X74.4209 Y21.4840 I-0.7778 J0.7778
G02 X74.0000 Y21.4002 I-0.4209 J1.0162
G02 X73.5791 Y21.4840 I0.0000 J1.0999
G02 X73.2223 Y21.7224 I0.4209 J1.0162
G02 X72.9839 Y22.0792 I0.7778 J0.7778
G02 X72.9001 Y22.5001 I1.0162 J0.4209
G02 X72.9839 Y22.9210 I1.0999 J0.0000
G02 X73.2223 Y23.2779 I1.0162 J-0.4209
G02 X73.5791 Y23.5163 I0.7778 J-0.7778
G02 X74.0000 Y23.6000 I0.4209 J-1.0162
G02 X74.4209 Y23.5163 I0.0000 J-1.0999
G02 X74.7778 Y23.2779 I-0.4209 J-1.0162
G02 X75.0162 Y22.9210 I-0.7778 J-0.7778
G02 X75.0999 Y22.5001 I-1.0162 J-0.4209
G02 X73.4501 Y21.5476 I-1.0999 J0.0000
G02 Y23.4527 I0.5500 J0.9525
G02 X75.0999 Y22.5001 I0.5500 J-0.9525
G00 X74.9000
G02 X73.5500 Y21.7207 Z-5.1667 I-0.9000 J0.0000 F900
G02 Y23.2796 Z-5.3333 I0.4500 J0.7794
G02 X74.9000 Y22.5001 Z-5.5000 I0.4500 J-0.7794
G02 X73.5500 Y21.7207 I-0.9000 J0.0000
G02 Y23.2796 I0.4500 J0.7794
G02 X74.9000 Y22.5001 I0.4500 J-0.7794
G02 X74.9355 Y22.1127 I-0.8803 J-0.2758 F1200
G02 X74.7778 Y21.7224 I-1.0189 J0.1847
G02 X74.4209 Y21.4840 I-0.7778 J0.7778
G02 X74.0000 Y21.4002 I-0.4209 J1.0162
G02 X73.5791 Y21.4840 I0.0000 J1.0999
G02 X73.2223 Y21.7224 I0.4209 J1.0162
G02 X72.9839 Y22.0792 I0.7778 J0.7778
G02 X72.9001 Y22.5001 I1.0162 J0.4209
G02 X72.9839 Y22.9210 I1.0999 J0.0000
G02 X73.2223 Y23.2779 I1.0162 J-0.4209
G02 X73.5791 Y23.5163 I0.7778 J-0.7778
G02 X74.0000 Y23.6000 I0.4209 J-1.0162
G02 X74.4209 Y23.5163 I0.0000 J-1.0999
G02 X74.7778 Y23.2779 I-0.4209 J-1.0162
G02 X75.0162 Y22.9210 I-0.7778 J-0.7778
G02 X75.0999 Y22.5001 I-1.0162 J-0.4209
G02 X73.4501 Y21.5476 I-1.0999 J0.0000
G02 Y23.4527 I0.5500 J0.9525
G02 X75.0999 Y22.5001 I0.5500 J-0.9525
G00 Z5.0000


(Nr. 32: Ausschnitt 12)
G00 X73.9930 Y16.3830 Z5.0000
G00 Z0.5000
G01 Z-1.0000 F900
G01 X73.7000 Y16.0898 F1200
G01 Y6.9098
G01 X73.9929 Y6.6169
G01 X73.7000 Y6.9098
G01 X51.3000 Y6.9102
G01 X51.0070 Y6.6170
G01 X51.3000 Y6.9102
G01 Y16.0902
G01 X51.0071 Y16.3831
G01 X51.3000 Y16.0902
G01 X73.7000 Y16.0898
G01 X73.9930 Y16.3830
G01 Z-2.0000 F900
G01 X73.7000 Y16.0898 F1200
G01 Y6.9098
G01 X73.9929 Y6.6169
G01 X73.7000 Y6.9098
G01 X51.3000 Y6.9102
G01 X51.0070 Y6.6170
G01 X51.3000 Y6.9102
G01 Y16.0902
G01 X51.0071 Y16.3831
G01 X51.3000 Y16.0902
G01 X73.7000 Y16.0898
G01 X73.9930 Y16.3830
G01 Z-3.0000 F900
G01 X73.7000 Y16.0898 F1200
G01 Y6.9098
G01 X73.9929 Y6.6169
G01 X73.7000 Y6.9098
G01 X51.3000 Y6.9102
G01 X51.0070 Y6.6170
G01 X51.3000 Y6.9102
G01 Y16.0902
G01 X51.0071 Y16.3831
G01 X51.3000 Y16.0902
G01 X73.7000 Y16.0898
G01 X73.9930 Y16.3830
G01 Z-4.0000 F900
G01 X73.7000 Y16.0898 F1200
G01 Y6.9098
G01 X73.9929 Y6.6169
G01 X73.7000 Y6.9098
G01 X51.3000 Y6.9102
G01 X51.0070 Y6.6170
G01 X51.3000 Y6.9102
G01 Y16.0902
G01 X51.0071 Y16.3831
G01 X51.3000 Y16.0902
G01 X73.7000 Y16.0898
G01 X73.9930 Y16.3830
G01 Z-5.0000 F900
G01 X73.7000 Y16.0898 F1200
G01 Y6.9098
G01 X73.9929 Y6.6169
G01 X73.7000 Y6.9098
G01 X51.3000 Y6.9102
G01 X51.0070 Y6.6170
G01 X51.3000 Y6.9102
G01 Y16.0902
G01 X51.0071 Y16.3831
G01 X51.3000 Y16.0902
G01 X73.7000 Y16.0898
G01 X73.9930 Y16.3830
G01 Z-5.5000 F900
G01 X73.7000 Y16.0898 F1200
G01 Y6.9098
G01 X73.9929 Y6.6169
G01 X73.7000 Y6.9098
G01 X51.3000 Y6.9102
G01 X51.0070 Y6.6170
G01 X51.3000 Y6.9102
G01 Y16.0902
G01 X51.0071 Y16.3831
G01 X51.3000 Y16.0902
G01 X73.7000 Y16.0898
G01 X73.9930 Y16.3830
G00 Z5.0000


(Nr. 33: Ausschnitt 11)
G00 X73.9929 Y51.6169 Z5.0000
G00 Z0.5000
G01 Z-1.0000 F900
G01 X73.7000 Y51.9098 F1200
G01 X51.3000 Y51.9102
G01 X51.0070 Y51.6170
G01 X51.3000 Y51.9102
G01 Y61.0902
G01 X51.0071 Y61.3831
G01 X51.3000 Y61.0902
G01 X73.7000 Y61.0898
G01 X73.9930 Y61.3830
G01 X73.7000 Y61.0898
G01 Y51.9098
G01 X73.9929 Y51.6169
G01 Z-2.0000 F900
G01 X73.7000 Y51.9098 F1200
G01 X51.3000 Y51.9102
G01 X51.0070 Y51.6170
G01 X51.3000 Y51.9102
G01 Y61.0902
G01 X51.0071 Y61.3831
G01 X51.3000 Y61.0902
G01 X73.7000 Y61.0898
G01 X73.9930 Y61.3830
G01 X73.7000 Y61.0898
G01 Y51.9098
G01 X73.9929 Y51.6169
G01 Z-3.0000 F900
G01 X73.7000 Y51.9098 F1200
G01 X51.3000 Y51.9102
G01 X51.0070 Y51.6170
G01 X51.3000 Y51.9102
G01 Y61.0902
G01 X51.0071 Y61.3831
G01 X51.3000 Y61.0902
G01 X73.7000 Y61.0898
G01 X73.9930 Y61.3830
G01 X73.7000 Y61.0898
G01 Y51.9098
G01 X73.9929 Y51.6169
G01 Z-4.0000 F900
G01 X73.7000 Y51.9098 F1200
G01 X51.3000 Y51.9102
G01 X51.0070 Y51.6170
G01 X51.3000 Y51.9102
